/* XPM */
static char *wall[] = {
/* columns rows colors chars-per-pixel */
"64 64 231 2 ",
"   c #030404",
".  c #0B0B0B",
"X  c #090806",
"o  c #100D05",
"O  c #1A1406",
"+  c #141414",
"@  c #191816",
"#  c #1B1B1B",
"$  c #161717",
"%  c #0F0F10",
"&  c #211A09",
"*  c #201F19",
"=  c #2A2006",
"-  c #3B2D09",
";  c #21201E",
":  c #2D2618",
">  c #3A2F15",
",  c #242423",
"<  c #292926",
"1  c #2C2B2A",
"2  c #282725",
"3  c #302F2C",
"4  c #32312D",
"5  c #38352D",
"6  c #353534",
"7  c #3B3A36",
"8  c #3C3C39",
"9  c #393732",
"0  c #1F1F20",
"q  c #483609",
"w  c #523E0A",
"e  c #4E3E1F",
"r  c #413F39",
"t  c #413D35",
"y  c #483E27",
"u  c #5C420A",
"i  c #534315",
"p  c #68500B",
"a  c #78590A",
"s  c #6E520E",
"d  c #454135",
"f  c #4A4536",
"g  c #44423C",
"h  c #4A463C",
"j  c #4D493F",
"k  c #554C39",
"l  c #564C2D",
"z  c #61563F",
"x  c #776639",
"c  c #3E3E40",
"v  c #434342",
"b  c #4C4A43",
"n  c #4C4C4C",
"m  c #534E43",
"M  c #555044",
"N  c #595345",
"B  c #54534B",
"V  c #5B594E",
"C  c #555554",
"Z  c #5C5B53",
"A  c #5B5B5B",
"S  c #665D45",
"D  c #625F53",
"F  c #6A634E",
"G  c #646054",
"H  c #65645C",
"J  c #6C695C",
"K  c #6A6658",
"L  c #726D5C",
"P  c #7C7251",
"I  c #646464",
"U  c #696966",
"Y  c #6C6C6B",
"T  c #686765",
"R  c #726F62",
"E  c #706F6C",
"W  c #737163",
"Q  c #72726D",
"!  c #7A7869",
"~  c #747473",
"^  c #7C7B75",
"/  c #7C7C7B",
"(  c #787773",
")  c #895D0B",
"_  c #966A0C",
"`  c #9E750C",
"'  c #94720B",
"]  c #91691B",
"[  c #A47C09",
"{  c #9B7B3E",
"}  c #876F30",
"|  c #867548",
" . c #997C44",
".. c #86774C",
"X. c #817E73",
"o. c #847C61",
"O. c #B9850D",
"+. c #AA8716",
"@. c #B38317",
"#. c #A98327",
"$. c #B7982D",
"%. c #C4940E",
"&. c #CE9A0D",
"*. c #D59B0D",
"=. c #CD9B18",
"-. c #DAA70D",
";. c #DDB316",
":. c #E5AC0D",
">. c #EAB60C",
",. c #F2B40D",
"<. c #F5BC0C",
"1. c #E4B710",
"2. c #C29520",
"3. c #F6C40D",
"4. c #F8C60D",
"5. c #F7C80F",
"6. c #F8C90E",
"7. c #F7CA12",
"8. c #F8CC12",
"9. c #F7CD1B",
"0. c #F8CD1A",
"q. c #F7D314",
"w. c #F8D313",
"e. c #F7D21C",
"r. c #F8D31B",
"t. c #F8DA1B",
"y. c #EFC40F",
"u. c #F7CF22",
"i. c #F7D324",
"p. c #F7D42A",
"a. c #F7DA28",
"s. c #F6D634",
"d. c #F7DB33",
"f. c #F7DB3B",
"g. c #F9D637",
"h. c #F7E339",
"j. c #F7E02A",
"k. c #A38346",
"l. c #868274",
"z. c #83837C",
"x. c #8A8778",
"c. c #938D75",
"v. c #98927A",
"b. c #978D6D",
"n. c #ACA37A",
"m. c #8A8154",
"M. c #D8BD40",
"N. c #F6DC44",
"B. c #F6DE4B",
"V. c #F8DD56",
"C. c #E9D250",
"Z. c #F7E348",
"A. c #F5E45C",
"S. c #F7E655",
"D. c #F5DB71",
"F. c #F4E463",
"G. c #F7E569",
"H. c #F8EB77",
"J. c #848483",
"K. c #8B8C8A",
"L. c #8B8984",
"P. c #908F88",
"I. c #92928D",
"U. c #989789",
"Y. c #949493",
"T. c #9A9A97",
"R. c #9B9B9B",
"E. c #979894",
"W. c #A29D84",
"Q. c #A09E98",
"!. c #ABA68A",
"~. c #B3AC8B",
"^. c #ADAB9C",
"/. c #A4A299",
"(. c #BAB598",
"). c #B4AF94",
"_. c #A3A3A3",
"`. c #ABAAA6",
"'. c #ABABAB",
"]. c #A5A6A6",
"[. c #B8B5AB",
"{. c #B4B4B3",
"}. c #BCBCBC",
"|. c #BBBAB3",
" X c #B0AFAC",
".X c #C1B893",
"XX c #C1BEB0",
"oX c #BFC19F",
"OX c #D4CB8B",
"+X c #CAC398",
"@X c #D2CB9B",
"#X c #CDC58D",
"$X c #E6D48B",
"%X c #EEE28B",
"&X c #F6EB88",
"*X c #F2ED9A",
"=X c #CAC7A9",
"-X c #D5CCA7",
";X c #DBD6A5",
":X c #C7C7BA",
">X c #D9D8B5",
",X c #D4CDB6",
"<X c #E7DDA6",
"1X c #E1DDBB",
"2X c #ECE5A9",
"3X c #F5EFAB",
"4X c #F0E7A8",
"5X c #EBE7B8",
"6X c #F4EFB4",
"7X c #F2EDBC",
"8X c #F5F2BA",
"9X c #C5C5C5",
"0X c #CCCCCB",
"qX c #CAC9C5",
"wX c #D6D4CA",
"eX c #D4D4D4",
"rX c #DCDCDB",
"tX c #D8D8D6",
"yX c #E2DCC6",
"uX c #EAE9C8",
"iX c #F2ECC2",
"pX c #F6F4C9",
"aX c #E4E4D8",
"sX c #F6F5D9",
"dX c #E4E4E3",
"fX c #EBECEB",
"gX c #EAEAE5",
"hX c #F2F2EC",
"jX c #F3F3F3",
"kX c #FBFBFB",
"lX c None",
/* pixels */
"lXlXlXlXlXlXlXlXlXlXlXlXlXlXlXlXlXlXlXlXlXlXlXlXlXlX{.]._.R.Y.Y.Y.E.E._.].{.lXlXlXlXlXlXlXlXlXlXlXlXlXlXlXlXlXlXlXlXlXlXlXlXlXlX",
"lXlXlXlXlXlXlXlXlXlXlXlXlXlXlXlXlXlXlXlXlXlX{.'.R.Y.J./ ~ E Y Y Y Y Y ~ / / Y.R.].}.lXlXlXlXlXlXlXlXlXlXlXlXlXlXlXlXlXlXlXlXlXlX",
"lXlXlXlXlXlXlXlXlXlXlXlXlXlXlXlXlXlXlXlX}.{._.Y.J.J./ / / ( E z.J.~ ~ / / / J.J.Y._.{.}.lXlXlXlXlXlXlXlXlXlXlXlXlXlXlXlXlXlXlXlX",
"lXlXlXlXlXlXlXlXlXlXlXlXlXlXlXlXlX0XrXtXqX{.].R.Y.K.J.J./ J.J.Y Y J.J.J.J.J.K.Y.R.].{.9XtXtX0XlXlXlXlXlXlXlXlXlXlXlXlXlXlXlXlXlX",
"lXlXlXlXlXlXlXlXlXlXlXlXlXlXlXlXrXfXjXdXwX}. X_.R.Y.I.K.K.K.K.I.I.K.K.K.Y.I.Y.R.]. X}.0XgXjXjXtXlXlXlXlXlXlXlXlXlXlXlXlXlXlXlXlX",
"lXlXlXlXlXlXlXlXlXlXlXlXlXlX0XgXjXjXjXhXtX9X{.'._.R.T.E.Y.I.I.K.K.P.I.I.Y.R.R._.`.|.:XtXfXjXjXjXdXeXlXlXlXlXlXlXlXlXlXlXlXlXlXlX",
"lXlXlXlXlXlXlXlXlXlXlXlXlXtXjXjXjXjXhXhXrX0X}.[.].Y.^ I n v 7 6 6 8 v n I ^ I.].{.}.0XrXfXjXhXjXjXjXtXlXlXlXlXlXlXlXlXlXlXlXlXlX",
"lXlXlXlXlXlXlXlXlXlXlX9XdXjXjXjXfXgXgXgXdXwX'.( v 2 # @ # ; , , 2 , 0 # $ # < v ( `.wXdXgXfXfXfXjXjXjXdX9XlXlXlXlXlXlXlXlXlXlXlX",
"lXlXlXlXlXlXlXlXlXlX9XdXjXjXfXdXdXdXdXaX|.U 1 @ # 1 7 b m D D D D Z V B b 7 1 # $ 1 I |.dXdXaXdXdXfXjXjXdX0XlXlXlXlXlXlXlXlXlXlX",
"lXlXlXlXlXlXlXlXlXqXfXjXfXdXdXrXtXrX}.U , $ 2 8 B D J R R R R L R W W W R J D B r 2 $ , U }.rXrXrXdXdXfXjXfX0XlXlXlXlXlXlXlXlXlX",
"lXlXlXlXlXlXlXlXqXfXtX{.}.eXtXeX0XL.3 + 2 g Z H R J D B v t 5 4 4 6 7 h B D L L J V r < + 3 J.0XeXtXtX}.{.eXfX9XlXlXlXlXlXlXlXlX",
"lXlXlXlXlXlXlX}.dXjX{.I / 0XeX{.A # # 7 B H J Z h 1 # % X             X % # 3 r Z J H B 7 0 $ A {.0X0XJ.I _.jXdX}.lXlXlXlXlXlXlX",
"lXlXlXlXlXlXlXdXjXdXeXR.{.qX_.c + , v Z D B 9 # .     o = q q w u q - & O X   X # 9 B D D v 2 + v _.0X{.R.0XfXjXdXlXlXlXlXlXlXlX",
"lXlXlXlXlXlXeXjXfXrXeX0X9XT.6 + < b D V r @ X   O q s [ [ &.*.:.-.-.&.O.` a q O     # 7 V D b < $ 6 T.9X0X0XrXfXjXeXlXlXlXlXlXlX",
"lXlXlXlXlX9XfXfXrXeX9X}.R.6 + 1 b V b , . X O u ` *.:.,.,.,.,.,.:.,.,.,.,.:.*._ u &   X , b V b 1 + 6 T.}.9X0XrXdXjXqXlXlXlXlXlX",
"lXlXlXlXlXdXjXrXeX9X}._.c + 2 v B 8 $   o q [ *.,.,.,.,.,.,.,.,.,.,.,.,.,.,.,.,.-.[ q o   $ 8 B v , + c _.}.0XeXdXfXdX{.lXlXlXlX",
"lXlXlXlX0XjXdXtX9X}.'.C $ 0 8 b 6 %   O a &.>.,.,.,.<.,.,.,.,.,.,.,.,.,.,.<.,.,.,.>.&.a O   % 6 n 8 ; + C '.}.qXeXdXjX0XlXlXlXlX",
"lXlXlX{.fXjXdX0X9X{.~ 0 $ 3 v 4 %   = ' :.<.<.<.<.<.<.<.<.<.<.,.,.<.<.,.<.<.<.<.<.<.<.:.' =   % 1 v 4 @ 0 ~ {.9X0XdXfXfX{.lXlXlX",
"lXlXlX0XjXfXrX0X}.R.6 % , 8 3 %   = ` >.<.<.<.<.<.<.<.<.<.<.,.<.<.,.<.<.<.<.<.3.<.y.<.<.>.` = X + 3 7 , % 6 R.}.0XrXfXjXeXlXlXlX",
"lXlX'.rXfXdXeX0X}.I # $ < 1 +   O ' >.7.<.3.<.3.3.<.3.<.<.<.<.,.<.<.<.<.<.<.<.<.7.<.<.3.5.>.' O   + 1 1 $ + I }.0XtXdXfXrX'.lXlX",
"lXlX'.0XeXeXeX0X_.6 . # < @   o a >.3.3.7.y.3.3.3.3.<.<.<.<.<.<.<.<.<.<.<.3.3.3.<.3.3.<.3.3.>.a o   @ < # . 6 _.0XeXeXeX0X'.lXlX",
"lXlX'.}.}.9X0X9X/ + . # # X   i -.3.3.3.3.3.3.3.3.<.3.<.<.<.<.<.<.<.<.<.<.3.<.4.7.3.3.7.3.5.3.-.i   . # # . $ ~ 9X9X9X}.}.'.lXlX",
"lXR._.'.{.}.}.{.n . . + .   & +.y.5.4.4.3.4.7.3.3.3.3.<.<.<.<.,.,.<.<.<.<.3.3.3.4.4.7.3.4.4.4.4.+.&   . + . . n {.}.}.{.'._.R.lX",
"lXY.Y._.].{.{.Y.<   . .     p 1.7.5.4.4.7.4.7.3.3.3.3.<.:.[ a p p a [ :.<.<.3.3.4.4.4.4.4.5.4.4.1.p     . .   < Y.}.'.'._.T.Y.lX",
"lXK.K.Y.R.].'.~ $         & +.8.5.7.5.5.5.5.5.3.3.3.>.' > g J.].].z.v - ' >.<.3.3.3.5.6.6.5.5.6.8.+.&         + ~ '.].R.Y.K.J.lX",
"lX/ / K.Y.R._.I . .       i ;.r.7.7.7.7.5.5.5.3.3.:.p o Y dXkXkXkXkXdXY . p :.<.3.3.6.5.6.7.7.7.8.;.i         . I _.R.Y.K./ / lX",
"J.I ~ / K.Y.Y.n         o ] u.9.0.0.8.8.7.5.4.3.>.p   4 dXkXkXkXkXkXkXdX6   p >.3.3.4.7.8.8.0.0.r.9.} o         n Y.Y.K./ Y Y J.",
"~ A I ~ / J.Y.c         @ $.p.i.r.0.q.8.5.5.3.<.[ X   b jXkXjXkXkXkXkXjXv   o [ 3.4.5.7.8.q.r.r.i.p.$.#         6 Y.K./ ~ I A / ",
"~ n A I ~ / Y.1         5 M.d.p.i.r.q.0.5.4.3.>.q     , }.kXkXkXkXkXkX}.,     q 1.3.7.7.8.q.e.i.p.g.M.e         1 Y.J.~ I A n Y ",
"Y n C I Y / R.,         l C.h.d.a.t.r.8.6.5.7.O.@   X . 8 '.dXjXjXdX'.8 . X   @ %.3.3.7.8.r.i.a.d.h.C.l         0 Y./ Y I C n Y ",
"Y n I / I ~ R.0         x A.Z.d.d.t.r.8.6.5.<.+.# X   . + 2 n I I n , + .   X # [ y.3.7.q.e.t.a.h.Z.A.x         0 R.~ I ~ I C I ",
"I C Y Y I Y ].0         ..H.S.Z.d.i.t.0.6.3.<.+.2 o     . + # 0 0 0 @ .     . 2 +.3.3.7.r.e.a.d.Z.S.H...      . 0 ].Y I ~ Y C I ",
"I A ~ E Y A ].,         m.H.F.Z.d.a.r.0.6.4.3.#.t @ X   X X % + + % . X   . + d #.3.3.5.w.r.a.d.Z.A.H.m.        # ].A Y Q ~ A I ",
"U C A A C C ].<         P &XF.Z.g.i.0.0.6.4.<.2.x 5 +   X   X X .         + 4 S 2.<.3.5.7.0.i.s.B.F.&XP         2 ].C C A A C Y ",
"Y A A C C C _.6         F &XF.B.g.p.9.8.3.3.3.=. .z 4 @ X             . + 5 z { *.5.3.5.7.0.u.s.Z.F.&XF         6 _.C C C C A Y ",
"Y A A A A A _.n         9 %XG.B.g.p.9.7.5.6.5.:.{  .S t 2 $ % X . % @ , t F  .#.-.5.5.5.7.0.u.g.B.F.%Xd         n _.A A A A I Y ",
"Y U I I J I T.Y         # OXH.V.N.p.u.7.3.7.3.<.%.{ { | S t 5 2 2 t t S | { { @.<.7.6.5.y.u.p.g.V.H.OX;         Y T.H J I I I Y ",
"Y Y Y Y Y Q P.I.          n.H.A.N.s.u.9.7.7.4.4.*.] } {  . .| | | |  .{ { x ] :.4.4.5.7.0.u.p.N.A.H.n.          I.I.Y E Y Y Y E ",
"lXY E Q Q ! x. X+         S &XA.N.s.u.9.7.7.4.4.3.%.) y l | { k. .{ | l e a %.<.4.4.3.7.0.u.s.N.A.&XD         @  Xx.( Q ~ E Y lX",
"lXY E / ^ X.l.|.v         ; #XG.N.s.u.9.7.7.7.3.7.,.%.) w - : : : * > w _ %.3.4.7.7.3.0.9.u.g.N.F.OX#         v |.l.X.^ ~ ~ E lX",
"lXY ~ ^ ^ x.x.`.K.          ! H.B.s.p.9.8.7.3.7.6.6.5.-.O.` ) a ) ) _ [ -.6.6.6.6.6.7.7.9.p.g.B.H.!           J.^.x.z.X.^ ( Y lX",
"lXlX/ X.z.x.v.!.XX0         # #XA.s.p.9.8.7.4.4.6.6.6.6.y.-.&.%.%.%.:.<.w.6.6.6.6.6.7.7.9.p.s.S.#X;         , |.!.v.x.z.z.~ lXlX",
"lXlX~ J.U.W.~.~.,XE   . . X   V $Xf.p.9.7.7.7.4.6.6.6.6.w.w.w.w.w.w.w.8.6.6.6.6.7.y.7.9.9.p.g.%XV   X . X   Y >X~.~.W.U.L.Q lXlX",
"lXlXY E.^.(.+X@X<X:X# . + %   . c.G.i.i.0.7.7.4.6.6.8.8.8.q.w.t.t.w.r.w.w.8.7.6.4.5.7.7.9.p.G.c.. X % % . ; :X;X@X+X(.^.E.E lXlX",
"lXlXlXQ.=X;X;X*X*X7XX.. + # +   + ~.V.u.0.7.5.5.7.7.7.8.w.t.t.t.t.t.t.r.w.8.7.7.5.7.7.0.9.V.~.@   % # $ X / 8X*X*X;X;X=XU.lXlXlX",
"lXlXlXx.>X5X5X3X3X3XyXv % ; , +   2 ~.V.7.7.5.5.6.7.8.r.t.j.j.j.j.j.a.a.r.r.7.7.4.4.7.0.V.~.;   + , ; % c yX3X3X6X3X5X>Xx.lXlXlX",
"lXlXlXlXoXpX8X8X6X3X8X[.; @ 1 < +   # W.D.0.5.5.7.7.0.i.a.d.h.h.h.h.j.a.i.0.8.7.7.4.0.F.W.0   + < < @ ; {.8X3X8X8X8XpXoXlXlXlXlX",
"lXlXlXlXz.uXpXpX8X6X4XiXY.$ ; 5 3 @   % X.$Xg.5.6.8.u.p.d.Z.Z.S.S.S.Z.h.d.u.0.5.4.g.$XX.$ X # 3 5 0 # I.7X2X6X8XpXpXuXx.lXlXlXlX",
"lXlXlXlXlX^.sXpXpX8X2X2XuX/ $ < 7 9 ; X X v ~.D.g.0.u.g.B.A.G.H.H.H.F.B.g.u.u.g.D.~.v   . 0 9 7 < $ / uX<X4X7XiXpXsX^.lXlXlXlXlX",
"lXlXlXlXlXU ,XsXpXpX5X2X<XyX/ # < r r 3 +   % B /.$XD.G.D.H.&X*X*X&XH.D.D.D.$X!.C %   + 3 r t 1 # / wX<X<X5XiXsXhX,XT lXlXlXlXlX",
"lXlXlXlXlXlXz.aXsXpX5X=X=X<XyXL., < r h r 2 %   . 6 E !.XX1XuXuXpXuX1X=X!.Q 6 .   % 2 t h r < , L.yX<X@X-X1XpXsXuXz.lXlXlXlXlXlX",
"lXlXlXlXlXlXlXE.gXhX X! x.-X.X,X/.6 2 7 b b t 3 $ .   X $ 1 r v v 7 < $ X X X $ 1 r b b t , 6 /.,X+X-Xx.! ^.hXgXE.lXlXlXlXlXlXlX",
"lXlXlXlXlXlXlXlX_.hXwX/ Q.-X.Xn..X|.I 2 3 g m m b t 3 ; + % . . X . . @ ; 3 t j m M r 3 2 I |.(.n..X,X^./ qXhX^.lXlXlXlXlXlXlXlX",
"lXlXlXlXlXlXlXlXlX`.hXaXyXXX.X!.b.v.[.R.n 2 4 g m m N m m r r r r g h j M N M m g 3 < n R.[.v.b.n.(.=XyXaXhX`.lXlXlXlXlXlXlXlXlX",
"lXlXlXlXlXlXlXlXlXlX].dXwXXX!.W.c.o.P v.[.T.A 3 3 9 r b M N N N N N N N b r 9 1 4 C T.[.v.P o.b.W.).XXwXdX_.lXlXlXlXlXlXlXlXlXlX",
"lXlXlXlXlXlXlXlXlXlXlXK.XXXX!.P.l.o.L F F X.^.`.J.C r 3 3 4 5 5 9 4 4 1 3 r C J.'.^.x.S F L ! l.P./.[.XXL.lXlXlXlXlXlXlXlXlXlXlX",
"lXlXlXlXlXlXlXlXlXlXlXlXY T.Q.P.l.! J F S N k K l./.`._.Y.J.~ ~ ~ ~ J.I._.`./.x.K z N S G J ! l.P./.R.U lXlXlXlXlXlXlXlXlXlXlXlX",
"lXlXlXlXlXlXlXlXlXlXlXlXlXn ~ L.^ Q J D V B M j f k k D R X.x.x.L.x.X.L D k k f j k N V G J Q ^ z.~ n lXlXlXlXlXlXlXlXlXlXlXlXlX",
"lXlXlXlXlXlXlXlXlXlXlXlXlXlXlXB I Y H Z B B m h j f f d d d d d f d d d f f f h j b B B Z H U U C lXlXlXlXlXlXlXlXlXlXlXlXlXlXlX",
"lXlXlXlXlXlXlXlXlXlXlXlXlXlXlXlX7 v C C B b b h h g d g d d g W W g d d t g g g h b n B C C b 6 lXlXlXlXlXlXlXlXlXlXlXlXlXlXlXlX",
"lXlXlXlXlXlXlXlXlXlXlXlXlXlXlXlXlXlX6 8 v v v v g 8 g 8 8 8 n T T n 8 8 r 8 r g v v v v 8 1 lXlXlXlXlXlXlXlXlXlXlXlXlXlXlXlXlXlX",
"lXlXlXlXlXlXlXlXlXlXlXlXlXlXlXlXlXlXlXlXlX1 6 6 6 8 7 7 8 6 8 A A r 8 6 7 7 8 6 6 6 3 lXlXlXlXlXlXlXlXlXlXlXlXlXlXlXlXlXlXlXlXlX",
"lXlXlXlXlXlXlXlXlXlXlXlXlXlXlXlXlXlXlXlXlXlXlXlX2 1 < 1 1 6 3 3 4 6 3 3 1 1 < 2 lXlXlXlXlXlXlXlXlXlXlXlXlXlXlXlXlXlXlXlXlXlXlXlX",
"lXlXlXlXlXlXlXlXlXlXlXlXlXlXlXlXlXlXlXlXlXlXlXlXlXlXlXlX< < 1 < 2 2 1 < lXlXlXlXlXlXlXlXlXlXlXlXlXlXlXlXlXlXlXlXlXlXlXlXlXlXlXlX"
};
