/* XPM */
static char *_38c2dd75651423fd36a8b2b34f9ff76PUYFXX94AmY3IBfA[] = {
/* columns rows colors chars-per-pixel */
"64 64 135 2 ",
"   c None",
".  c #000101",
"X  c #000A0A",
"o  c #00100F",
"O  c #001414",
"+  c #001B1B",
"@  c #002323",
"#  c #002A2A",
"$  c #003534",
"%  c #003B3B",
"&  c #004444",
"*  c #004C4C",
"=  c #005353",
"-  c #005B5B",
";  c #00605F",
":  c #006464",
">  c #006867",
",  c #006C6B",
"<  c #00706F",
"1  c #007473",
"2  c #007C7B",
"3  c #00807F",
"4  c #008483",
"5  c #008887",
"6  c #008C8B",
"7  c #00908F",
"8  c #009493",
"9  c #009896",
"0  c #009C9C",
"q  c #00A09F",
"w  c #00A4A3",
"e  c #00A8A7",
"r  c #00ADAC",
"t  c #00B0AF",
"y  c #00B5B4",
"u  c #00B8B7",
"i  c #00BBBB",
"p  c #00C1BF",
"a  c #00C4C3",
"s  c #00CCCB",
"d  c #00CDCC",
"f  c #00CECC",
"g  c #00CECD",
"h  c #00CFCD",
"j  c #00CFCE",
"k  c #00CAC9",
"l  c #00D0CE",
"z  c #00D0CF",
"x  c #00D1CF",
"c  c #00D0CF",
"v  c #00D1D0",
"b  c #00D2D1",
"n  c #00D4D2",
"m  c #00D4D3",
"M  c #00D5D3",
"N  c #00D5D4",
"B  c #00D6D5",
"V  c #00D7D5",
"C  c #00D4D3",
"Z  c #00D8D6",
"A  c #00D8D7",
"S  c #00D9D7",
"D  c #00D8D7",
"F  c #00DAD8",
"G  c #00DBD9",
"H  c #00DCDA",
"J  c #00DCDB",
"K  c #00DDDB",
"L  c #00DEDC",
"P  c #00DEDD",
"I  c #00DFDE",
"U  c #00DCDB",
"Y  c #00E0DF",
"T  c #00E1DF",
"R  c #00E1DF",
"E  c #00E1E0",
"W  c #00E2E0",
"Q  c #00E3E2",
"!  c #00E4E2",
"~  c #00E5E3",
"^  c #00E6E5",
"/  c #00E7E5",
"(  c #00E7E6",
")  c #00E4E3",
"_  c #00E8E6",
"`  c #00E9E8",
"'  c #00EAE8",
"]  c #00EBEA",
"[  c #00ECEA",
"{  c #00ECEB",
"}  c #00EDEB",
"|  c #00EDEC",
" . c #00EEED",
".. c #00ECEA",
"X. c #00F0EE",
"o. c #00F0EF",
"O. c #00F1EF",
"+. c #00F1F0",
"@. c #00F2F0",
"#. c #00F2F1",
"$. c #00F3F1",
"%. c #00F4F2",
"&. c #00F5F3",
"*. c #00F5F5",
"=. c #00F6F5",
"-. c #00F7F5",
";. c #00F6F6",
":. c #00F7F6",
">. c #00F4F3",
",. c #00F8F6",
"<. c #00F8F7",
"1. c #00F9F7",
"2. c #00FAF7",
"3. c #00F8F8",
"4. c #00F9F8",
"5. c #00FAF8",
"6. c #00FBF8",
"7. c #00FAF9",
"8. c #00FBF9",
"9. c #00FBFA",
"0. c #00FCF9",
"q. c #00FCFA",
"w. c #00FCFB",
"e. c #00FDFB",
"r. c #00FCFC",
"t. c #00FDFC",
"y. c #00FDFD",
"u. c #00FEFC",
"i. c #00FEFD",
"p. c #00FFFD",
"a. c #00FEFE",
"s. c #00FFFE",
"d. c #00FEFF",
"f. c cyan",
"g. c #00FEFD",
/* pixels */
"                                                                                                                                ",
"                                                    + % = > , 2 2 1 > = % O                                                     ",
"                                            O = 4 i ' f.f.f.f.f.f.f.f.f.f.( i 4 * O                                             ",
"                                        % 6 I f.f.f.f.%.F a y e e r a S +.f.f.f.f.F 6 &                                         ",
"                                    = y w.f.f.( e , % O . . . . . . . . O $ , r | f.f.f.y =                                     ",
"                                % r f.f.f.i - O . . . . . . . . . . . . . . . . + : i f.f.f.y %                                 ",
"                            X 4 *.f.w.0 % . . . . . . . . . . . . . . . . . . . . . . % e f.f.2.5 X                             ",
"                          $ a f.f.y $ . . . . . . . . . . . . . . . . . . . . . . . . . . $ y f.f.k %                           ",
"                        = | f.{ > . . . . . . . . . . . . . . . . . . . . . . . . . . . . . . : ' f.o.-                         ",
"                      > 3.f.a # . . . . . . . . . . . . . . . . . . . . . . . . . . . . . . . . @ a f.f.,                       ",
"                    1 f.f.w X . . . . . . . . . . . . . . . . . . . . . . . . . . . . . . . . . . . w f.f.1                     ",
"                  - f.f.8 . . . . . . . . . . . . . . . . . . . . . . . . . . . . . . . . . . . . . . 8 f.f.>                   ",
"                % *.f.9 . . . . . . . . . . . . . . . . . . . . . . . . . . . . . . . . . . . . . . . . 0 f.3.*                 ",
"              @ Y f.y . . . . . . . . . . . . . . . . . . . . . . . . . . . . . . . . . . . . . . . . . . u f.( @               ",
"              y f.S X . . . . . . . . . . . . . . . . . . . . . . . . . . . . . . . . . . . . . . . . . . O I f.y               ",
"            > f.3.% . . . X 1 i g g g v k g g s g g s x v v v v v v v m g p 9 & . . . . . . . . . . . . . . % 3.f.:             ",
"          + ' f.4 . . . X a f.f.f.f.f.f.f.f.f.f.f.f.f.f.f.f.f.f.f.f.f.f.f.f.f.f.7 . . . . . . . . . . . . . . 4 f.( +           ",
"          6 f.J X . . . 6 f.*.3.w.w.w.w.3.w.w.w.w.w.3.3.2.w.w.w.w.w.w.w.w.3.3.3.f.4 . . . . . . . . . . . . . X N f.6           ",
"        @ +.f.- . . . . I f.w.f.f.f.f.f.f.f.f.f.w.f.w.f.f.w.f.f.f.f.f.f.w.w.f.w.3.w.# . . . . . . . . . . . . . * f.+.@         ",
"        4 f.x . . . . X _ f.w.f.f.f.f.f.f.f.f.f.w.w.f.x p f.f.f.f.f.f.f.w.w.f.f.3.f.9 . . . . . . . . . . . . . . a f.4         ",
"      O ! f.- . . . . . N f.3.f.f.f.w.w.w.f.f.f.2.f.w . . 7 f.3.w.w.w.f.f.f.f.f.w.f.( X . . . . . . . . . . . . . * f.! O       ",
"      : f.E X . . . . . , f.3.3.3.3.2.2.3.3.3.2.f.a . . . = f.2.w.w.f.f.f.f.f.f.f.3.f.* . . . . . . . . . . . . . . F f.;       ",
"      y f.4 . . . . . . . 9 f.f.f.f.f.f.f.f.f.f.y O . . . k f.3.w.w.w.w.f.f.w.f.f.3.f.e . . . . . . . . . . . . . . 4 f.t       ",
"    @ o.f.$ . . . . . . . . & 4 8 8 8 8 8 8 6 = . . . . - f.3.f.w.w.w.w.f.f.w.w.f.w.f.+.O . . . . . . . . . . . . . % f.o.@     ",
"    = f.I . . . . . . . . . . . . . . . . . . . . . . X I f.w.f.f.w.w.f.f.f.w.w.f.f.3.f.> . . . . . . . . . . . . . X Y f.-     ",
"    2 f.e . . . . . . . . . . . . . . . . . . . . . . 1 f.3.f.f.w.f.f.w.f.f.w.w.f.f.3.f.i . . . . . . . . . . . . . . e f.6     ",
"    r f.1 . . . . . . . . . . . . . . . . . . . . . O ' f.w.f.f.f.m S f.w.f.f.w.f.f.f.f.3.@ . . . . . . . . . . . . . , f.y     ",
"    N f.* . . . . . . . . . . . . . . . . . . . . . 6 f.3.f.w.f.4 . . 0 f.3.w.w.f.f.f.3.f.1 . . . . . . . . . . . . . & f.N     ",
"  + | f.# . . . . . . . . . . . . . . . . . . . . @ *.w.w.w.f.{ . . . X Y f.w.f.f.f.f.3.f.k . . . . . . . . . . . . . # f.o.@   ",
"  $ f.2.+ . . . . . . . . . . . . . . . . . . . . r f.3.f.w.w.*.# . . . = f.w.f.w.w.w.w.f.w.# . . . . . . . . . . . . O +.f.%   ",
"  % f.{ X . . . . . . . . . . . . . . . . . . . % f.w.f.f.f.2.f.0 . . . . i f.3.w.w.w.w.3.f.2 . . . . . . . . . . . . X ( f.&   ",
"  * f.Y . . . . . . . . . . . . . . . . . . . . a f.3.f.f.f.w.f.S . . . . @ *.w.w.w.w.w.w.f.x . . . . . . . . . . . . . E f.&   ",
"  * f.J . . . . . . . . . . . . . . . . . . . * f.3.f.f.f.f.3.f.k . . . . . 3 f.3.f.f.f.f.w.f.$ . . . . . . . . . . . X ! f.*   ",
"  % f._ X . . . . . . . . . . . . . . . . . . m f.w.f.w.3.3.3.f.1 . . . . . X I f.w.f.f.f.3.f.6 . . . . . . . . . . . O { f.&   ",
"  $ f.3.+ . . . . . . . . . . . . . . . . . : f.3.f.f.f.f.f.f.q . . . . . . . = f.3.f.f.w.w.f.J . . . . . . . . . . . O %.f.%   ",
"  @ +.f.# . . . . . . . . . . . . . . . . X E f.w.w.w.3.2 - $ . . . . . . . . . u f.3.f.w.w.w.f.& . . . . . . . . . . # f.+.@   ",
"    v f.* . . . . . . . . . . . . . . . . 4 f.3.f.3.f.> . . . . . . . . . . . . @ *.w.w.w.f.2.f.q . . . . . . . . . . * f.N     ",
"    e f.1 . . . . . . . . . . . . . . . + %.w.w.3.f.8 . . . . . . . . . . . . . . 2 f.3.w.f.w.f.' O . . . . . . . . . 1 f.i     ",
"    2 f.e . . . . . . . . . . . . . . . 0 f.3.3.f.i . . . . . . . . . . . . . . . X S f.w.f.f.3.f.- . . . . . . . . . w f.6     ",
"    = f.Y X . . . . . . . . . . . . . # 3.w.3.f.I O . . . . . . . . . . . . . . . . * f.3.f.f.3.f.y . . . . . . . . . J f.=     ",
"    + ' f.% . . . . . . . . . . . . . i f.2.w.*.$ . . . . . . . . . . . . . . . . . . r f.3.f.w.f.%.+ . . . . . . . $ f.| +     ",
"      e f.4 . . . . . . . . . . . . @ f.3.2.f.- . . . . . . . . . . . . . . . . . . . @ %.w.w.f.3.f.> . . . . . . . 4 f.r       ",
"      - f.Y X . . . . . . . . . . . O E f.f.6 . . . . . . . . . . . . . . . . . . . . . 2 f.3.f.w.f.i . . . . . . . N f.;       ",
"      O ! f.= . . . . . . . . . . . . # 8 , . . . . . . . . . . . . . . . . . . . . . . . N f.w.w.f.*.+ . . . . . * f.{ +       ",
"        6 f.a . . . . . . . . . . . . . . . . . . . . . . . . . . . . . . . . . . . . . . & f.3.f.3.f.< . . . . . a f.9         ",
"        # *.f.= . . . . . . . . . . . . . . . . . . . . . . . . . . . . . . . . . . . . . . e f.3.w.f.k . . . . * f.*.#         ",
"          6 f.S X . . . . . . . . . . . . . . . . . . . . . . . . . . . . . . . . . . . . . + +.3.3.f.+.O . . X S f.6           ",
"          + ( f.2 . . . . . . . . . . . . . . . . . . . . . . . . . . . . . . . . . . . . . . 1 f.f.f.a . . . 4 f.' +           ",
"            : f.*.% . . . . . . . . . . . . . . . . . . . . . . . . . . . . . . . . . . . . . . 4 v e @ . . % 3.f.,             ",
"              u f.I O . . . . . . . . . . . . . . . . . . . . . . . . . . . . . . . . . . . . . . . . . . O J f.i               ",
"              @ ' f.u . . . . . . . . . . . . . . . . . . . . . . . . . . . . . . . . . . . . . . . . . . y f.( @               ",
"                * f.f.0 . . . . . . . . . . . . . . . . . . . . . . . . . . . . . . . . . . . . . . . . 0 f.3.&                 ",
"                  , f.f.9 . . . . . . . . . . . . . . . . . . . . . . . . . . . . . . . . . . . . . . 9 f.f.>                   ",
"                    1 f.f.e X . . . . . . . . . . . . . . . . . . . . . . . . . . . . . . . . . . X e f.f.1                     ",
"                      1 f.f.a # . . . . . . . . . . . . . . . . . . . . . . . . . . . . . . . . # k f.f.1                       ",
"                        - +.f.{ > . . . . . . . . . . . . . . . . . . . . . . . . . . . . . . : | f.+.;                         ",
"                          % g f.f.i % . . . . . . . . . . . . . . . . . . . . . . . . . . $ y f.f.x %                           ",
"                            o 6 3.f.w.w $ . . . . . . . . . . . . . . . . . . . . . . $ 0 3.f.3.6 O                             ",
"                                & y f.f.f.y - O . . . . . . . . . . . . . . . . O : i f.f.f.y &                                 ",
"                                    = u f.f.f.' r , % + . . . . . . . . + % > e { f.f.f.y =                                     ",
"                                        & 9 E f.f.f.f.%.F a t e r r i F *.f.f.f.f.I 8 &                                         ",
"                                            + = 4 a | f.f.f.f.f.f.f.f.f.f.' a 6 = O                                             ",
"                                                    @ % = > 2 2 2 2 , = $ +                                                     ",
"                                                                                                                                "
};
