/* XPM */
static char *imagen[] = {
/* columns rows colors chars-per-pixel */
"64 64 150 2 ",
"   c #000000",
".  c #0D0000",
"X  c #03040C",
"o  c #160000",
"O  c #1E0000",
"+  c #030511",
"@  c #04081A",
"#  c #0B0A1B",
"$  c #1A091E",
"%  c #16181E",
"&  c #220000",
"*  c #2D0000",
"=  c #320000",
"-  c #3A0000",
";  c #34050F",
":  c #3B091D",
">  c #060B23",
",  c #080F2F",
"<  c #171A27",
"1  c #080F31",
"2  c #0A133D",
"3  c #1D1137",
"4  c #250E2D",
"5  c #2C0C27",
"6  c #300B24",
"7  c #2F3038",
"8  c #32343B",
"9  c #450000",
"0  c #4B0001",
"q  c #510000",
"w  c #5D0000",
"e  c #5F040E",
"r  c #430819",
"t  c #560511",
"y  c #630002",
"u  c #680000",
"i  c #7C0000",
"p  c #421025",
"a  c #0B1442",
"s  c #0E184D",
"d  c #0C1649",
"f  c #11194F",
"g  c #181546",
"h  c #0E1A54",
"j  c #0F1B58",
"k  c #101A54",
"l  c #101D5E",
"z  c #252C4E",
"x  c #2D345A",
"c  c #0F1E62",
"v  c #111F63",
"b  c #0F2067",
"n  c #122066",
"m  c #11216A",
"M  c #1B2763",
"N  c #122474",
"B  c #16277C",
"V  c #212E6F",
"C  c #293364",
"Z  c #303B71",
"A  c #46484E",
"S  c #494A50",
"D  c #535358",
"F  c #444961",
"G  c #4B5069",
"H  c #444C77",
"J  c #4C547B",
"K  c #810103",
"L  c #8A0001",
"P  c #920000",
"I  c #9C0000",
"U  c #A20000",
"Y  c #AB0000",
"T  c #B50000",
"R  c #BD0000",
"E  c #C20000",
"W  c #CC0000",
"Q  c #D20000",
"!  c #DE0000",
"~  c #E30000",
"^  c #EC0000",
"/  c #F30000",
"(  c #FF0000",
")  c #FF0C0C",
"_  c #EB3635",
"`  c #FF3636",
"'  c #B75557",
"]  c #FF4A4A",
"[  c #FF5454",
"{  c #FF6E6E",
"}  c #FF7E7E",
"|  c #172983",
" . c #1C2E86",
".. c #1D2F88",
"X. c #1E3087",
"o. c #243589",
"O. c #27388B",
"+. c #2C3C8E",
"@. c #334392",
"#. c #384794",
"$. c #3C4B96",
"%. c #45539A",
"&. c #48569D",
"*. c #4C5A9E",
"=. c #58639A",
"-. c #7A7F9A",
";. c #525FA2",
":. c #5E6BA6",
">. c #5663A3",
",. c #636FAB",
"<. c #6671AC",
"1. c #6D78AF",
"2. c #6873AC",
"3. c #6F7AB0",
"4. c #BD7F81",
"5. c #7982AE",
"6. c #7983B6",
"7. c #7A84B8",
"8. c #7E88B8",
"9. c #7580B4",
"0. c #8086A1",
"q. c #828BBA",
"w. c #8089B4",
"e. c #8992BE",
"r. c #FFA8A8",
"t. c #8A93C0",
"y. c #959DC5",
"u. c #9AA2C7",
"i. c #9DA4C9",
"p. c #A0A7CB",
"a. c #A5ABCD",
"s. c #A8AFCF",
"d. c #A7ACC3",
"f. c #ACB1C8",
"g. c #ADB4D2",
"h. c #B4B9D5",
"j. c #B0B6D3",
"k. c #BEC3DB",
"l. c #C9CBD7",
"z. c #FFC5C5",
"x. c #FFC8C8",
"c. c #C7CBE0",
"v. c #CBCFE3",
"b. c #CED1E4",
"n. c #D2D5E6",
"m. c #DADDE9",
"M. c #DEE1EC",
"N. c #E1E3ED",
"B. c #E8EAF2",
"V. c None",
/* pixels */
"V.V.V.V.V.V.V.V.V.V.V.V.V.V.V.V.V.V.V.V.V.V.V.V.V.V.V.V.V.V.V.V.V.V.V.V.V.V.V.V.V.                  V.V.V.V.V.V.V.V.V.V.V.V.V.V.",
"V.V.V.V.V.V.V.V.V.V.V.V.V.V.V.V.V.V.V.V.V.V.V.V.V.V.V.V.V.V.V.V.V.V.V.V.V.V.                              V.V.V.V.V.V.V.V.V.V.V.",
"V.V.V.V.V.V.V.V.V.V.V.V.V.V.V.V.V.V.V.V.V.V.V.V.V.V.V.V.V.V.V.V.V.V.V.V.          X % 7 A D S 8 < +           V.V.V.V.V.V.V.V.V.",
"V.V.V.V.V.V.V.V.V.V.V.V.V.V.V.V.V.V.V.V.V.V.V.V.V.V.V.V.V.V.V.V.V.V.V.        < S 5.d.c.M.B.N.l.f.0.G < X       V.V.V.V.V.V.V.V.",
"V.V.V.V.V.V.V.V.V.V.V.V.V.V.V.V.V.V.V.V.V.V.V.V.V.V.V.V.V.V.V.V.V.V.      < H 5.i.g.k.l.b.n.n.c.l.h.i.w.J <         V.V.V.V.V.V.",
"V.V.V.V.V.V.V.V.V.V.V.V.V.V.V.V.V.V.V.V.V.V.V.V.V.V.V.V.V.V.V.V.V.    X z =.6.u.a.i.s.j.h.h.h.g.g.p.y.e.6.,.x +       V.V.V.V.V.",
"V.V.V.V.V.V.V.V.V.V.V.V.V.V.V.V.V.V.V.V.V.V.V.V.V.V.V.V.V.V.V.V.    + C *.,.u.M.n.y.y.y.u.u.u.u.y.t.q.6.3.,.;.Z #       V.V.V.V.",
"V.V.V.V.V.V.V.V.V.V.V.V.V.V.V.V.V.V.V.V.V.V.V.V.V.V.V.V.V.V.V.    X M #.&.e.m.m.h.q.9.8.q.q.q.8.9.9.3.2.:.;.&.#.V +     V.V.V.V.",
"V.V.V.V.V.V.V.V.V.V.V.V.V.V.V.V.V.V.V.V.V.V.V.V.V.V.V.V.V.V.    + j  .@.9.n.n.a.7.:.,.,.2.2.2.2.<.:.>.>.&.%.#.+...n X     V.V.V.",
"V.V.V.V.V.V.V.V.V.V.V.V.V.V.V.V.V.V.V.V.V.V.V.V.V.V.V.V.V.    + l |  .<.b.b.u.<.&.%.&.*.*.*.*.*.*.%.%.$.@.+.o. .| | h       V.V.",
"V.V.V.V.V.V.V.V.V.V.V.V.V.V.V.V.V.V.V.V.V.V.V.V.V.V.V.V.    + l | ..:.v.v.t.*.o.O.+.@.@.@.@.@.@.+.+.O.o.X. .| | | | B >     V.V.",
"V.V.V.V.V.V.V.V.V.V.V.V.V.V.V.V.V.V.V.V.V.V.V.V.V.V.V.    + c | ..,.v.b.t.&...| | | | |  . .|  .|  .| | B | | | | | | l       V.",
"V.V.V.V.V.V.V.V.V.V.V.V.V.V.V.V.V.V.V.V.V.V.V.V.V.V.    + l | X.,.v.v.t.&...| | | | | | | | | | | | | | | | | | | | | B >     V.",
"V.V.V.V.V.V.V.V.V.V.V.V.V.V.V.V.V.V.V.V.V.V.V.V.V.    + c | X.,.v.v.t.&...| | | | | | | | | | | | | | | | | | | | | | | a     V.",
"V.V.V.V.V.V.V.V.V.V.V.V.V.V.V.V.V.V.V.V.V.V.V.V.    + l | ..<.v.v.t.&...| | | | | | | | | | | | | | | | | | | | | | | B s       ",
"V.V.V.V.V.V.V.V.V.V.V.V.V.V.V.V.V.V.V.V.V.V.V.    + l | ..,.v.v.t.&...| | | | | | | | | | | | | | | | | | | | | | | | n h +     ",
"V.V.V.V.V.V.V.V.V.V.V.V.V.V.V.V.V.V.V.V.V.V.    + l | ..,.v.v.t.&.X.| | | | | | | | | | | | | | | | | | | | | | | | B l h @     ",
"V.V.V.V.V.V.V.V.V.V.V.V.V.V.V.V.V.V.V.V.V.    + c | ..,.v.v.e.&.X.| | | | | | | | | | | | | | | | | | | | | | | | | v h k >     ",
"V.V.V.V.V.V.V.V.V.V.V.V.V.V.V.V.V.V.V.V.    X l | ..<.v.v.e.&.X.| | | | | | | | | | | | | | | | | | | | | | | | | N k l h >     ",
"V.V.V.V.V.V.V.V.V.V.V.V.V.V.V.V.V.V.V.    X v | ..,.v.v.e.&.X.| | | | | | | | | | | | | | | | | | | | | | | | | B l k l j >     ",
"V.V.V.V.V.V.V.V.V.V.V.V.V.V.V.V.V.V.    + l | ..<.v.v.t.&.X.| | | | | | | | | | | | | | | | | | | | | | | | | | m j j j h @     ",
"V.V.V.V.V.V.V.V.V.V.V.V.V.V.V.V.V.    X l |  .,.v.v.t.&.X.| | | | | | | | | | | | | | | | | | | | | | | | | | N l j j j h +     ",
"V.V.V.V.V.V.V.V.V.V.V.V.V.V.V.V.      h | ..,.v.v.t.&...B | | | | | | | | | | | | | | | | | | | | | | | | | N l h j j j d       ",
"V.V.V.V.V.V.V.V.V.V.V.V.V.V.V.    & i g ..,.v.v.e.&...| | | | | | | | | | | | | | | | | | | | | | | | | | B l k j j j j 1     V.",
"V.V.V.V.V.V.V.V.V.V.V.V.V.V.    O T ^ p :.v.v.t.&...| | | | | | | | | | | | | | | | | | | | | | | | | | B v j j j j j h @     V.",
"V.V.V.V.V.V.V.V.V.V.V.V.V.    & T ( ) ' l.n.t.&...| | | | | | | | | | | | | B | | | | | | | | | | | | B v j j j j j k 2       V.",
"V.V.V.V.V.V.V.V.V.V.V.V.    O T ( ) [ z.n.t.&...| | | | | | | | | | | | | | | | | | | | | | | | | | B v j j j j j j h @     V.V.",
"V.V.V.V.V.V.V.V.V.V.V.    O T ( ) [ z.z.' %...| | | | | | | | | | | | | | | | | | | | | | | | | | | v h j j j j j j ,       V.V.",
"V.V.V.V.V.V.V.V.V.V.    O T ( ) ] z.z.} _ r N | | | | | | | | | | | | | | | | | | | | | | | | | B v h h j j j j j 2       V.V.V.",
"V.V.V.V.V.V.V.V.V.    O T ( ) [ z.z.} ` ) T 3 | | | | | | | | | | | | | | | | | | | | | | | | B v l h l j j j j a +     V.V.V.V.",
"V.V.V.V.V.V.V.V.    O T ( ) ] z.z.} ` ) ( ( i k | | | | | | | | | | | | | | | | | | | | | | B v j j l h j j j a +     V.V.V.V.V.",
"V.V.V.V.V.V.V.    O T ( ) [ z.z.} ` ) ( ( ( ^ t b | | | | | | | | | | | | | | | | | | | | B v j j j j k j j a X       V.V.V.V.V.",
"V.V.V.V.V.V.    O T ( ) ] z.z.} ` ) ( ( ( ( ( ! : N | | | | | | | | | | | | | | | | | | B v j j j j j j j a X       V.V.V.V.V.V.",
"V.V.V.V.V.    O T ( ) [ z.z.} ` ) ( ( ( ( ( ( ( E 4 N | | | | | | | | | | | | | | | | | v l j j j j j j a X       V.V.V.V.V.V.V.",
"V.V.V.V.    o T ( ) [ z.z.} ` ) ( ( ( ( ( ( ( ( ( T 4 B | | | | | | | | | | | | | | B v h h l j j j j a X       V.V.V.V.V.V.V.V.",
"V.V.V.    o Y ( ) [ z.z.} ` ) ( ( ( ( ( ( ( ( ( ( ( T 4 B | | | | | | | | | | | | B v j h l h k j j a X       V.V.V.V.V.V.V.V.V.",
"V.V.      K ( ) ] z.z.} ` ) ( ( ( ( ( ( ( ( ( ( ( ( ( T 4 N | | | | | | | | | | B v j j j j j j j a X       V.V.V.V.V.V.V.V.V.V.",
"V.V.    - ^ ) [ z.z.} ` ) ( ( ( ( ( ( ( ( ( ( ( ( ( ( ( R 6 m | | | | | | | | B v j j j j j j j a X       V.V.V.V.V.V.V.V.V.V.V.",
"V.    . Y ( [ z.z.} ` ) ( ( ( ( ( ( ( ( ( ( ( ( ( ( ( ( ( W r c | | | | | | B n h j j j j j j a X       V.V.V.V.V.V.V.V.V.V.V.V.",
"V.    - ^ ) r.z.} ` ) ( ( ( ( ( ( ( ( ( ( ( ( ( ( ( ( ( ( ( ~ e f | | | | B n k j j j j j j a X       V.V.V.V.V.V.V.V.V.V.V.V.V.",
"V.    K ( ( ] { ` ) ( ( ( ( ( ( ( ( ( ( ( ( ( ( ( ( ( ( ( ( ( / L 3 N | | v j j j j j j j a X       V.V.V.V.V.V.V.V.V.V.V.V.V.V.",
"    o E ( ( ( ) ( ( ( ( ( ( ( ( ( ( ( ( ( ( ( ( ( ( ( ( ( ( ( ( ( E r k v k j j j j j j a X       V.V.V.V.V.V.V.V.V.V.V.V.V.V.V.",
"    * ~ ( ( ( ( ( ( ( ( ( ( ( ( ( ( ( ( ( ( ( ( ( ( ( ( ( ( ( ( ( ( ~ y $ a j j j j j a X       V.V.V.V.V.V.V.V.V.V.V.V.V.V.V.V.",
"    9 ( ( ( ( ( ( ( ( ( ( ( ( ( ( ( ( ( ( ( ( ( ( ( ( ( ( ( ( ( ( / E Y L 0 $ 2 h h a X       V.V.V.V.V.V.V.V.V.V.V.V.V.V.V.V.V.",
"    w ( ( ( ( ( ( ( ( ( ( ( ( ( ( ( ( ( ( ( ( ( ( ( ( ( ( ( ( ( / E Y Y Y Y P y ; # X       V.V.V.V.V.V.V.V.V.V.V.V.V.V.V.V.V.V.",
"    y ( ( ( ( ( ( ( ( ( ( ( ( ( ( ( ( ( ( ( ( ( ( ( ( ( ( ( ( / R Y Y Y Y Y Y T i .       V.V.V.V.V.V.V.V.V.V.V.V.V.V.V.V.V.V.V.",
"    w ( ( ( ( ( ( ( ( ( ( ( ( ( ( ( ( ( ( ( ( ( ( ( ( ( ( ( / E Y Y Y Y Y Y Y K o       V.V.V.V.V.V.V.V.V.V.V.V.V.V.V.V.V.V.V.V.",
"    0 ( ( ( ( ( ( ( ( ( ( ( ( ( ( ( ( ( ( ( ( ( ( ( ( ( ( / R Y Y Y Y Y Y Y i o       V.V.V.V.V.V.V.V.V.V.V.V.V.V.V.V.V.V.V.V.V.",
"    = ^ ( ( ( ( ( ( ( ( ( ( ( ( ( ( ( ( ( ( ( ( ( ( ( ( / E Y Y Y Y Y Y Y i o       V.V.V.V.V.V.V.V.V.V.V.V.V.V.V.V.V.V.V.V.V.V.",
"    o W ( ( ( ( ( ( ( ( ( ( ( ( ( ( ( ( ( ( ( ( ( ( ( / E Y Y Y Y Y Y Y K o       V.V.V.V.V.V.V.V.V.V.V.V.V.V.V.V.V.V.V.V.V.V.V.",
"V.    P ( ( ( ( ( ( ( ( ( ( ( ( ( ( ( ( ( ( ( ( ( ( / E Y Y Y Y Y Y Y K o       V.V.V.V.V.V.V.V.V.V.V.V.V.V.V.V.V.V.V.V.V.V.V.V.",
"V.    0 / ( ( ( ( ( ( ( ( ( ( ( ( ( ( ( ( ( ( ( ( / R Y Y Y Y Y Y Y i o       V.V.V.V.V.V.V.V.V.V.V.V.V.V.V.V.V.V.V.V.V.V.V.V.V.",
"V.    . T ( ( ( ( ( ( ( ( ( ( ( ( ( ( ( ( ( ( ( / E Y Y Y Y Y Y Y i o       V.V.V.V.V.V.V.V.V.V.V.V.V.V.V.V.V.V.V.V.V.V.V.V.V.V.",
"V.V.    q / ( ( ( ( ( ( ( ( ( ( ( ( ( ( ( ( ( / T Y Y Y Y Y Y Y K o       V.V.V.V.V.V.V.V.V.V.V.V.V.V.V.V.V.V.V.V.V.V.V.V.V.V.V.",
"V.V.    . I ( ( ( ( ( ( ( ( ( ( ( ( ( ( ( ( ~ T Y Y Y Y Y Y Y i o       V.V.V.V.V.V.V.V.V.V.V.V.V.V.V.V.V.V.V.V.V.V.V.V.V.V.V.V.",
"V.V.V.    O E ( ( ( ( ( ( ( ( ( ( ( ( ( ( Q Y Y Y Y Y Y Y Y i o       V.V.V.V.V.V.V.V.V.V.V.V.V.V.V.V.V.V.V.V.V.V.V.V.V.V.V.V.V.",
"V.V.V.V.    = Q ( ( ( ( ( ( ( ( ( ( ( ^ E Y Y Y Y Y Y Y T K o       V.V.V.V.V.V.V.V.V.V.V.V.V.V.V.V.V.V.V.V.V.V.V.V.V.V.V.V.V.V.",
"V.V.V.V.      = E ( ( ( ( ( ( ( ( / W T Y Y Y Y Y Y Y Y i o       V.V.V.V.V.V.V.V.V.V.V.V.V.V.V.V.V.V.V.V.V.V.V.V.V.V.V.V.V.V.V.",
"V.V.V.V.V.      & I / ( ( ( ( ^ W T Y Y Y Y Y Y Y T U w .       V.V.V.V.V.V.V.V.V.V.V.V.V.V.V.V.V.V.V.V.V.V.V.V.V.V.V.V.V.V.V.V.",
"V.V.V.V.V.V.      . q R ^ ~ E T Y Y Y Y Y Y Y Y I i *       V.V.V.V.V.V.V.V.V.V.V.V.V.V.V.V.V.V.V.V.V.V.V.V.V.V.V.V.V.V.V.V.V.V.",
"V.V.V.V.V.V.V.V.      . = u L U Y Y Y Y Y I L y * .       V.V.V.V.V.V.V.V.V.V.V.V.V.V.V.V.V.V.V.V.V.V.V.V.V.V.V.V.V.V.V.V.V.V.V.",
"V.V.V.V.V.V.V.V.V.          o & = 9 0 9 = & .           V.V.V.V.V.V.V.V.V.V.V.V.V.V.V.V.V.V.V.V.V.V.V.V.V.V.V.V.V.V.V.V.V.V.V.V.",
"V.V.V.V.V.V.V.V.V.V.V.                              V.V.V.V.V.V.V.V.V.V.V.V.V.V.V.V.V.V.V.V.V.V.V.V.V.V.V.V.V.V.V.V.V.V.V.V.V.V.",
"V.V.V.V.V.V.V.V.V.V.V.V.V.V.                  V.V.V.V.V.V.V.V.V.V.V.V.V.V.V.V.V.V.V.V.V.V.V.V.V.V.V.V.V.V.V.V.V.V.V.V.V.V.V.V.V."
};
