/* XPM */
static char *exit[] = {
/* columns rows colors chars-per-pixel */
"64 64 59 1 ",
"  c #000000",
". c #000807",
"X c #000C0C",
"o c #00100F",
"O c #001414",
"+ c #001B1A",
"@ c #002424",
"# c #002C2B",
"$ c #00302F",
"% c #003434",
"& c #003837",
"* c #003B3A",
"= c #00403F",
"- c #004343",
"; c #004847",
": c #004C4C",
"> c #00504F",
", c #005353",
"< c #005C5C",
"1 c #00605F",
"2 c #006363",
"3 c #006867",
"4 c #006B6A",
"5 c #00706F",
"6 c #007474",
"7 c #007877",
"8 c #007D7C",
"9 c #008383",
"0 c #008887",
"q c #008B8B",
"w c #00908F",
"e c #009392",
"r c #009897",
"t c #009B9A",
"y c #00A09F",
"u c #00A4A3",
"i c #00A8A7",
"p c #00ACAB",
"a c #00B0AF",
"s c #00B3B2",
"d c #00B8B7",
"f c #00BCBB",
"g c #00C0BF",
"h c #00C5C4",
"j c #00C8C7",
"k c #00CCCB",
"l c #00D0CF",
"z c #00D4D3",
"x c #00D8D6",
"c c #00DDDB",
"v c #00E0DE",
"b c #00E4E3",
"n c #00E8E7",
"m c #00EDEB",
"M c #00F0EF",
"N c #00F4F3",
"B c #00F8F7",
"V c #00FEFD",
"C c None",
/* pixels */
"CCCCCCCCCCCCCCCCCCCCCCCCCCCCCCCCCCCCCCCCCCCCCCCCCCCCCCCCCCCCCCCC",
"CCCCCCCCCCCCCCCCCCCCCCCCCC&:26700962:%CCCCCCCCCCCCCCCCCCCCCCCCCC",
"CCCCCCCCCCCCCCCCCCCCCC#<qfcmBVVVVVVBmcdq<@CCCCCCCCCCCCCCCCCCCCCC",
"CCCCCCCCCCCCCCCCCCCC:rxNVVNbzfsiipfkbNVVNle:CCCCCCCCCCCCCCCCCCCC",
"CCCCCCCCCCCCCCCCCC<pmVVci6-@OX.   .O@-4pbVVms<CCCCCCCCCCCCCCCCCC",
"CCCCCCCCCCCCCCCC:pNVMd1+               .@2fMVNp:CCCCCCCCCCCCCCCC",
"CCCCCCCCCCCCCC@qnVmt-X                    X-umVme@CCCCCCCCCCCCCC",
"CCCCCCCCCCCCC;fVBs*.                        .-sBVh:CCCCCCCCCCCCC",
"CCCCCCCCCCCC2cVb4X                            X2cVv4CCCCCCCCCCCC",
"CCCCCCCCCCC6nVf%                                %fVm7CCCCCCCCCCC",
"CCCCCCCCCC8NVt+                                  +tVN9CCCCCCCCCC",
"CCCCCCCCC6mVeX                                    XwBN6CCCCCCCCC",
"CCCCCCCC,bVeX                                      XrVm<CCCCCCCC",
"CCCCCCC*kViO                                        OaVz-CCCCCCC",
"CCCCCCCpVk@    .XXXXXXXXXXXXXXXXXXoXXX               @zVpCCCCCCC",
"CCCCCC6Bm;   +6shhhjfhhhhhhhhkhkjjkjjde;.             ;mB6CCCCCC",
"CCCCC*xV0   +dVVVVVVVVVVVVVVVVVVVVVVVVVMqX             0Vx&CCCCC",
"CCCCCeVk+   0VVVVVVVVVVVVVVVVVVVVVVVVVVVV9             +kVwCCCCC",
"CCCC*bV2   OkVVVVVVVVVVVVVVVVVVVVVVVVVVVVm&             <Nv-CCCC",
"CCCCqVhO   +cVVVVVVVVVVVVVBkfNVVVVVVVVVVVVe             XdVqCCCC",
"CCC%xV2    XhVVVVVVVVVVVVVtOXwVBVVVBVVVVVVx+             <Bx%CCC",
"CCC5Vz+     4BVVVVVVVVBVVf+  4VVVVVVVVVBVVB,             +lB4CCC",
"CCCsVq      XeNVVVVVVVVVp@  OfVVVVVVBVVVVVVu.             qVpCCC",
"CC*cN-       X;9eeweeeq,X   2BVVVBVVVVVVVVVb@             ;Nb*CC",
"CC2BzO                     +kVVVVVVVVVVVVVVV3             +zB4CC",
"CCqVi                      6VVVVVVVVVVVVBVVVsX             uVeCC",
"CCpV7                     @cVVVVBllBVVBVVVVVn%             6VsCC",
"CCkV,                     qVVVVV8oOrVVVVVVVBV7             >VkCC",
"C&cM&                    &bVVVVv@  +lVVVVVVVVfX            %Mc*C",
"C;nn@                   .uVVVVVm*   1BVBVVVVVm*            @bm:C",
"C:mc+                   ;NVVVVVVr   XpVVVVVVVV8            +xM<C",
"C<Nx+                  XdVVVVVVVkX   &bVVVVVVVhX           OxN<C",
"C<NlO                  <BVVVVVVVf.    9VVVVVVVN*           +xN<C",
"C:mc+                 OhVVVVVVVV6     +kVVVVVVV0           +cM,C",
"C;nn#                 4BVVVVVVmtO      <NVVVVVVk+          @nm,C",
"C*cM&                +zVVVVm8<*X       XpVVVBVVB:          &Mc*C",
"CCjV,                8VVVVB3            *nVVVVVVt          ,VkCC",
"CCpV7               %bVVVBq.             8VVVVVVc@         6VdCC",
"CC0Vi              .rVVVVaO              +jVVVVVB<         uVrCC",
"CC2Bz+             *mVVVk#                ,MVVVVVp.       OzB2CC",
"CC&xN;            XsVVVn-                 XuVVVVVn@       -Nc&CC",
"CCCiVq            @mVVN1                   %bVVVVV4       0VpCCC",
"CCC4Bx+           +kVVq                     8VVVVVs.     OkV6CCC",
"CCC%xB2            &q4o                     OhVVVVn#     ,Vc&CCC",
"CCCCqVfo                                     ,NVVVV6    XdVtCCCC",
"CCCC;bB<                                     .uVVVVfX   <Bb;CCCC",
"CCCCCeVk+                                     $bVVVc+  +kVeCCCCC",
"CCCCC&xV8                                      6VVVsX  0Vx*CCCCC",
"CCCCCC6Bm;                                     X9hi#  ;mB7CCCCCC",
"CCCCCCCpVk@                                      X.  @kVsCCCCCCC",
"CCCCCCC-xVpO                                        OpVz-CCCCCCC",
"CCCCCCCC2mVrX                                      XrVn<CCCCCCCC",
"CCCCCCCCC7NVeX                                    XeVM6CCCCCCCCC",
"CCCCCCCCCC8NVu+                                  +uBN9CCCCCCCCCC",
"CCCCCCCCCCC8mVf&                                *gVN8CCCCCCCCCCC",
"CCCCCCCCCCCC4bVc4X                            X3vVb4CCCCCCCCCCCC",
"CCCCCCCCCCCCC:hVNd-.                        .*pBVh,CCCCCCCCCCCCC",
"CCCCCCCCCCCCCC#qmVmu*X                    X*tmVme#CCCCCCCCCCCCCC",
"CCCCCCCCCCCCCCCC,sNVMs2@.              .@2dmVNs,CCCCCCCCCCCCCCCC",
"CCCCCCCCCCCCCCCCCC2smVBcp6-@OX.  ..O@=4icVVms2CCCCCCCCCCCCCCCCCC",
"CCCCCCCCCCCCCCCCCCCC,txNVVBnzfppppflnNVVNzr,CCCCCCCCCCCCCCCCCCCC",
"CCCCCCCCCCCCCCCCCCCCCC%2qfcmBVVVVVVBmcfr2#CCCCCCCCCCCCCCCCCCCCCC",
"CCCCCCCCCCCCCCCCCCCCCCCCCC*,260qq082;&CCCCCCCCCCCCCCCCCCCCCCCCCC",
"CCCCCCCCCCCCCCCCCCCCCCCCCCCCCCCCCCCCCCCCCCCCCCCCCCCCCCCCCCCCCCCC"
};
