/* XPM */
static char *aaf5cd0e385b4505c86047ebaa902ec9nMsQhE83C4tCjpsO[] = {
/* columns rows colors chars-per-pixel */
"64 64 143 2 ",
"   c #674731",
".  c #6C4B33",
"X  c #6F4E38",
"o  c #714F36",
"O  c #6D513D",
"+  c #735037",
"@  c #765339",
"#  c #79553A",
"$  c #7E593D",
"%  c #6C5341",
"&  c #6F5847",
"*  c #6B5749",
"=  c #6F594A",
"-  c #725540",
";  c #765A46",
":  c #7C5B43",
">  c #745C4A",
",  c #7B5F4A",
"<  c #6A5C53",
"1  c #7F6047",
"2  c #7D624C",
"3  c #67605B",
"4  c #6F665F",
"5  c #776150",
"6  c #7B6656",
"7  c #72665C",
"8  c #76685D",
"9  c #7A695B",
"0  c #716760",
"q  c #776C63",
"w  c #7B6C61",
"e  c #7C736D",
"r  c #815B3E",
"t  c #855E41",
"y  c #876042",
"u  c #8C6445",
"i  c #85634A",
"p  c #8B6649",
"a  c #8D694C",
"s  c #906747",
"d  c #916847",
"f  c #936A48",
"g  c #93694A",
"h  c #926948",
"j  c #946948",
"k  c #946A48",
"l  c #946A49",
"z  c #956A49",
"x  c #946B49",
"c  c #956B49",
"v  c #966B49",
"b  c #956B4A",
"n  c #966B4A",
"m  c #976B4A",
"M  c #966C4A",
"N  c #976C4A",
"B  c #916A4C",
"V  c #956B4A",
"C  c #986C4A",
"Z  c #986D4B",
"A  c #996D4B",
"S  c #996E4B",
"D  c #9A6E4B",
"F  c #996E4C",
"G  c #996E4D",
"H  c #9A6E4C",
"J  c #9B6E4C",
"K  c #9A6F4C",
"L  c #9B6F4C",
"P  c #986F4E",
"I  c #9C6F4D",
"U  c #9A6E4C",
"Y  c #9C704D",
"T  c #9D704D",
"R  c #9D714D",
"E  c #9E714D",
"W  c #9D714E",
"Q  c #9E714E",
"!  c #9F724E",
"~  c #9E724F",
"^  c #9F724F",
"/  c #9E714E",
"(  c #806651",
")  c #806755",
"_  c #876C56",
"`  c #8F6D54",
"'  c #8D6C52",
"]  c #846D5B",
"[  c #826C5C",
"{  c #8B6F5A",
"}  c #8A6F5A",
"|  c #926E52",
" . c #88715E",
".. c #967357",
"X. c #947155",
"o. c #9B7253",
"O. c #9A7354",
"+. c #9C7251",
"@. c #927359",
"#. c #997559",
"$. c #9E795D",
"%. c #A1734F",
"&. c #A1734F",
"*. c #A27450",
"=. c #A37450",
"-. c #A37550",
";. c #A37551",
":. c #A47551",
">. c #A47651",
",. c #A57651",
"<. c #A57752",
"1. c #A67752",
"2. c #A57652",
"3. c #A77853",
"4. c #A87953",
"5. c #A97954",
"6. c #AA7A54",
"7. c #AD7C56",
"8. c #AE7D56",
"9. c #AF7E57",
"0. c #AC7C55",
"q. c #A0795B",
"w. c #A07A5D",
"e. c #877260",
"r. c #837163",
"t. c #897160",
"y. c #847469",
"u. c #84766B",
"i. c #8A796C",
"p. c #937A66",
"a. c #927A68",
"s. c #847A73",
"d. c #8B7B70",
"f. c #8D7C70",
"g. c #8B7E76",
"h. c #8A7F77",
"j. c #A07D62",
"k. c #A27E62",
"l. c #A27E62",
"z. c #8B8078",
"x. c #908176",
"c. c #938479",
"v. c #94867C",
/* pixels */
"-.7.t r r r r u u v d u r r r r y h M G v v Q O.g.d.o.Q v u t r u u t r r # # t r @ @ @ @ 2 t # # $ # # # u u u # # y u h @ @ t ",
"u 7.A r r r u u u u t r r r r r # # A Q Q Q Q u a u s u u u u u u u t r r # # # # r u t 2 2 y y # # r # t u u $ # # r r Q Q 7.7.",
"u Q Q 1.u y u u u u r r r $ r y # t Q Q Q M v u u u u t u t t r t $ # $ # @ # # u A M v 2 2 y y y u -.7.7.s u $ # # $ r u v G 1.",
"u Q -.1.u # u u # @ $ r # # # t u Q Q Q Q M v u p u .   + @ @ # # # # # o o $ 1.7.7.Q M 2 2 y y u u M 7.1.u u u . . # r y v o . ",
"u t u Q # $ y t @ @ o . . # # $ s u # $ r u s u e =     o @ @ $ G d # # + o u 7.7.7.1.p 2 : # r u u u h u s s o     @ r # + . . ",
"$ # # ; y y y y # @ o . . # r u r # # # # # t ] e & .   @ @ . u Q 7.v Q -.Q # t 1.7.A u r # # # t M s u s s r .   . t u # @ @ + ",
"r $ # ; B Q u y $ + . . . . u u r r r $ # # $ 1 y.v.v.v.f.. . # r r u Q 7.u # # $ u s t # $ t $ # d M u $ @ o o . . r u $ @ # # ",
"r r ; ; i Q u @ o o @ . . . u u u r u v $ # $ r p a.c.v.x.+ @ Q t r u s Q $ # $ r r t # # t u u o o @   . o o o . . u u u # # # ",
"$ u G p : r # o o o $ $ . @ s Q 1.1.A v u # r r u u p { ` Q Q Q Q M u u s d y t r r r $ # t u # o .       . . : G A 1.G u t $ u ",
"r d Q Q u r 9 > o o # r u v v 1.1.1.v v # # $ u u u t # # Q Q Q 1.1.u s v M M M s u r r o   . o o o     @ . . ; i Q 1.1.s u u u ",
"u u G A a q q q > @ $ r v v v M %.A v u # @ + # $ # # # # # Q 4.1.u y u u u M M d u r r .   + o o o . t Q Q h p p u u v u u u u ",
"G Q I y y q q q e.k.t r v v u u u u u u r o o # # # # # # # 6.7.1.y y y r r M M i r r r + y y $ # # # Q Q Q G v v u s M # r u u ",
"Q Q u y y 7 0 0 k.k.q.Q v u u u u s u u @ y v v # # r Q Q G 6.-.Q u y u u u h u i 2 $ $ , u y u u # # u %.-.Q Q Q u v v # # u v ",
"h G y y 2 4 4 4 ..k.Q Q v u u u A Q v @ @ Q Q u @ # # u Q Q Q Q Q y y u u v v u p 2 6 4 4 u u u u t t y 7.7.G Q Q . t M r # t M ",
"G Q r # > 4 7 a M G G v u v s s A G v $ r t t o o # # # u r s M d u y u s Q v u u 8 q 7 4 ( u u t t t y A G M M t . . $ # # $ t ",
"Q Q u # # # p M M M M # # Q Q Q A M u r $ o o o + # # # + o r M u u u u u Q v u $ , q q 4 4 u u t r r t h d s y r u @ . @ r r r ",
"G Q u # # # h M M M M y # v I Q I A h + o o # r # # # # o o @ h u u u u + . r # # # 5 7 4 7 u i # # $ r r # # # # u t @ # $ # # ",
"u M y # # o t M v M M M M s v v Q Q v . . o u u # $ t u @ o . . @ u u u . . # # # # + % 3 3 3 3 ; # # r $ # # # . . @ # # $ # # ",
"u M M u $ o @ d s u h u u d u u A Q $ . . $ u u t u u u t o o o o o u u .   + # # # + O 3 3 3 < # # # # # # # @ . . + @ # r r $ ",
"r h M M y o u u s u u y u Q v u y y . . t Q G v h u $ o . O X o o o # # @   u Q t # + o < 3 3 # # # # # # # # # @ @ @ @ t r r r ",
"r d M $ . . # Q v u u u s Q M u y y $ y s Q Q v M r o o . O O $ $ $ r # # r Q Q s t o + # & * @ # r u $ # # # # + + @ # k.$.u y ",
"Q 1.u . . . . Q u u u u u v M u y y p u s Q A u s o o + # # @ r r r r # # # u Q s u $ # @ @ o o # u u r $ # # @ o o h M X.k.$.M ",
"-.1.t @ . . $ h d u u u u s M v p ' ' M M M u u u + o # # # + + $ r $ # # # v A r r t t @ . o o @ t r r $ # # $ + + M s # h v v ",
"%.1.M # . . # M M t t u u u M M a ' { | h M # # # # o o @ # @ + $ r u # # r Q 1.r r y u @ . o o r # # # # r r u u @ u # r v v v ",
"Q %.I # . . . u y r r u u u s d { y.s.s.# # # # # # # + o u G -.t u v s $ r u 1.1.-.A -.7.Q t I u . @ # # r y u # # r Q Q Q Q Q ",
"Q Q # o @ o @ r r r r r r r u u  .s.s.s.: @ @ # # # # # u 0.0.7.Q Q M v t # # s 1.1.Q 1.7.7.%.Q u . + # $ u u r # # r Q Q Q Q Q ",
"u u # r # # $ u u t $ $ r r y ' t.w @ @ ; o o @ # # u u u 1.1.1.1.G %.-.r # # $ M a Q Q 3.4.1.G t + @ # u u u t $ u u u v M Q Q ",
"r u 1.1.$ # h +.+.Q # # r r y.z.y.# + o o o o o @ # $ u t 1.1.1.%.u %.1.. . u p p p M Q Q 1.1.# # # # # r u u y u u u u h M v Q ",
"r u Q Q # o p +.Q Q t # $ # 2 y.: # # r @ o o o o # # # r r v G v s A M @ o Q v u u s Q Q 1.A t # # # # u u r # # A M u s t u M ",
"r Q v u # o t M G Q d # # # # # # M h M # o o o o $ $ # $ r u M M M d u u # Q u u u u # $ r r t r r r 1.A u # o o Q Q Q u r r M ",
"r # # r t $ u M M Q G | #...u t u M M u # + @ @ # r $ # # # u M M M M h G Q u u v r # # p p r r r r r 1.M $ # @ # r u v u t t y ",
"t # # r t u u # # Q Q q.w.M M M M M v # $ t u u u r r r # # @ # u M M M Q Q # # M M # : @.@.r r r s -.M # # # # $ r t u u u y y ",
"t r r r r t r # # s Q | B M M M v u u p t y u u u t t r # # @ @ @ u h M A u # $ v v u G ..| r r r A Q u @ o + # # # t u u y u u ",
"t $ r r r r $ # # # t 2 2 2 h M h u u u u y u u u u u u # # . . @ # $ r r # # u u u Q Q o.@.i r t u t # @ o o # # # o # # # # # ",
"# # $ r t t r # # # h a 2 2 y u u u u u u h h u u u t t $ .     @ # # r t $ # u u u A G X.@.@.$ # $ t t t # @ # # @ o o @ + o o ",
"# # r # $ y r # # u h M p y y y u u u u u M u u u u r r #     # # # # y y # o o r u t # # # : # # # r u A Q s # # + + o .   o o ",
"# u u $ # # # # t u u s u u y u u u u u u u u . . o # t u @   + # r t $ u # o o @ u $ # # # # # # # u v Q Q M u # @ y t @ . o r ",
"r u u u r # # # # o   u u u u u u u u u u u t .     $ u u u # # # u y # t u @ # r u u # # # # # r M v u v Q M u @ o y y Q Q u u ",
"u t u u u u # # @ .   @ t # t u u r t t r # o o . $ u u u $ # # # r # @ r u # # -.-.v h # # $ t v M M s s M M $ # # u s Q G h u ",
"u # # # t M r # $ o .   @ # y u t r r $ + . . o : u u 1.Q $ # $ r r o . G 1.v u I 1.v v # # t u M M M M M M M r # # u u B M v u ",
"r # # # y M A G Q t # r d Q u r r r $ # # + . ; : Q G 1.1.u t u r r o . Q 1.1.v v v v h $ # r u M M v v v u a i : u.s.z.i.u t t ",
"r r r y u A Q Q Q M h y I Q v r y r @ o # # ; ; ; Q h A A y u u y r . . t 1.1.v v v v M y y # # t y u u u u u '  .s.h.z.) # # r ",
"$ t y y u v u u p v M M M A v v v u + @ # # s v A v u u u u t t @ .     r 1.Q v M M M M u y @ . # y u u u u y p a 9 2 # # # # u ",
"u Q u t u u # # : 2 i M M v v v v v t # # # t v Q Q u u u u # @ . .     G 1.G M X.@.M M u y #   + u u u u u y y $ o o # # # $ Q ",
"s Q h + u u # # 2 2 : $ h v A I G Q A -.6.G Q A v v u t y u y @ + O * & 1.Q s h @.@.p u r $ $ . + r s G G A u u t o o @ # # # Q ",
"Q Q r o r r # : 2 2 # # u u A Q Q Q Q 7.7.7.4.1.# # $ r r u 9 8 > 4 4 4 i u u M @.@.u u $ # # @ + o t Q Q Q s u u u u # # # # A ",
"Q Q u t u r # t t r # u u u s v G v y u M A 1.1.y u y r u B q _ a 4 4 4 i u v Q Y M u y # # # @ o o . o t G v u s u u + @ # @ + ",
"Q Q u u u M h u t r u M u u u u u u y y M M -.1.Q Q Q Q 1.1.v M M 4 7 # $ u s Q v M r r # # # # @       @ r Q Q Q Q t . .   . o ",
"Q Q u u y u h h u u v M v u r $ u u u u M M G Q Q Q Q Q # A # $ u # # # # r t r t v u $ # @ + + @ o o o r r G Q Q Q A .     $ @ ",
"t r $ # @ . + M h d M M y o o o @ M M M M M A Q Q Q Q Q # + # # $ # # # # # r r $ M d o + o o o $ r r r t r u Q Q Q Q Q t Q I M ",
"r r $ # # . # h h h v u @ o @ @ o u h d M d M Q Q Q Q Q Q Q u $ r r # @ o + # # # $ @ o o o + $ u u $ # u Q G Q Q Q Q Q Q Q M u ",
"r r r r r A G u u # # o o u u u t O u u # # r Q Q Q G M Q Q a # $ r $ o o $ t # # # # @ @ @ # # u u $ # s Q Q Q v r u Q ..| M M ",
"r r u u y G Q h u # # + o t r u @ O # i t : u s A s d M o.k.#.# $ 1.d r # r u t # # u d # @ $ r : : $ u A %.v v r r r B @.| u s ",
"r r M M u u Q Q M # $ u $ r r $ O O - i i i u u t r r # $ k.#.# r 1.%.r o . # o t 6.7.Q r @ $ # % % y 1.1.1.v u r r u M M h u u ",
"r t M A u u u G M t t u s A Q Q t ; : : i p u y y r $ # # # o @ # A s . . . . o u 3.7.A # # @ @ % % r Q 1.%.v u t r u v M A u y ",
"u u G Q r r r r M M u u A 1.1.1.M : : : y u u u y y $ # # # o o # o o o . . . o @ 1.4.# # # @ @ O $ r r v u u y y y u u G Q s y ",
"u u h A r $ $ r u I 1.1.1.-.1.Q t : : # # # + @ r r # # # @ o + # @ o o + u u t d 1.G # # # # # # t r r u v u u u u u u G Q G u ",
"s u u y t # # # # # -.1.Q M h u $ # # # @ . . . # # r # @ @ o o + # # @ h Q Q 1.1.1.d # $ M r # r h t o Q Q d u u u u u h Q Q Q ",
"t r t y y # # # # # t G M M M h u # @ + + + . . # $ u u # + o . . r 1.1.Q Q Q 1.1.1.r # $ u v r d h $ o Q Q M u h v h y r y v u ",
"r # u u u u # # # # t M M M M M v u @ o o @ o o @ r u u t o o # u A 1.1.*.Q Q Q Q Q r # $ t u o u h o o Q %.# + v %.Q u r r $ # ",
"d t u u u $ @ $ u M Q v d h h s u u # # u t o o @ # r.y.[ # @ A 4.4.1.-.Q Q Q Q Q I y r # # @ # y s @ $ u u o o $ u t # # r r M ",
"M M u u + o @ A Q Q v u u @.y y u # # # u u + o @ # u.s.6 r $ o -.4.A Q Q Q Q Q Q Q u y # # $ h h h u u u u + + . . . . . . o v ",
"M M u t # # $ s -.I u u X.@.p t t # # t h u t $ : i.g.r.# # + o $ s u A Q Q u u I Q A $ # # $ r u v v u u u @ @ t # $ + . . . v ",
"6.7.u # # r r r A 1.u a @.@.t r $ # t M M u d Q +.p.p.' # # o o o u u u u r # # @ . @ @ @ r r r u M M M u u u M M M r @ . . r 7."
};
