/* XPM */
static char *bd87cfb06f3046fde34fbaf9783b9b3baOq22qcI0Mme7LE1[] = {
/* columns rows colors chars-per-pixel */
"64 64 199 2 ",
"   c None",
".  c #020203",
"X  c #0A090C",
"o  c #07070A",
"O  c #0D0D11",
"+  c #0F111B",
"@  c #131214",
"#  c #14141C",
"$  c #1A1A1E",
"%  c #17191F",
"&  c #1C1D24",
"*  c #1A1B28",
"=  c #201E25",
"-  c #1F2029",
";  c #232225",
":  c #25252B",
">  c #2A272E",
",  c #2B2A2D",
"<  c #292927",
"1  c #312F2F",
"2  c #2C2C33",
"3  c #2C2C3B",
"4  c #252732",
"5  c #312F34",
"6  c #312F3B",
"7  c #2F3037",
"8  c #323235",
"9  c #3B3937",
"0  c #34353B",
"q  c #39363B",
"w  c #37383D",
"e  c #3A393D",
"r  c #393532",
"t  c #403E3E",
"y  c #43403F",
"u  c #353441",
"i  c #3C3C43",
"p  c #3D3D4A",
"a  c #393842",
"s  c #403F41",
"d  c #413E4A",
"f  c #3F4045",
"g  c #424144",
"h  c #44444C",
"j  c #49464C",
"k  c #4B4B4E",
"l  c #4A4644",
"z  c #444452",
"x  c #484752",
"c  c #4C4C53",
"v  c #4D4D5A",
"b  c #514E53",
"n  c #524E5C",
"m  c #4F515B",
"M  c #535254",
"N  c #53545C",
"B  c #58575B",
"V  c #5A5A5D",
"C  c #575859",
"Z  c #424E62",
"A  c #4C5263",
"S  c #4C596E",
"D  c #425669",
"F  c #535462",
"G  c #565864",
"H  c #5C5C63",
"J  c #55566A",
"K  c #54596A",
"L  c #5C5D6B",
"P  c #5A5564",
"I  c #495E76",
"U  c #515C71",
"Y  c #5B5D70",
"T  c #605F63",
"R  c #625E6C",
"E  c #795966",
"W  c #605F74",
"Q  c #5F616E",
"!  c #5F6067",
"~  c #41637C",
"^  c #4B6279",
"/  c #5E6273",
"(  c #5E6378",
")  c #636265",
"_  c #63646C",
"`  c #6A666B",
"'  c #6B6A6C",
"]  c #646472",
"[  c #686673",
"{  c #676974",
"}  c #6B6C74",
"|  c #65657A",
" . c #69667B",
".. c #66697B",
"X. c #6C6C7B",
"o. c #706F78",
"O. c #6E707B",
"+. c #737377",
"@. c #73747C",
"#. c #79757D",
"$. c #7E7D7E",
"%. c #8A5662",
"&. c #4A6985",
"*. c #526A85",
"=. c #4B718F",
"-. c #4D7593",
";. c #477A9A",
":. c #567995",
">. c #56738C",
",. c #6C6C82",
"<. c #716F83",
"1. c #6F7284",
"2. c #6D7089",
"3. c #747484",
"4. c #767985",
"5. c #7A7B84",
"6. c #717589",
"7. c #777A8B",
"8. c #7A7B8D",
"9. c #7A7788",
"0. c #777991",
"q. c #7C7C92",
"w. c #817D89",
"e. c #867F91",
"r. c #7F818C",
"t. c #7F8199",
"y. c #7D8296",
"u. c #4985A8",
"i. c #838486",
"p. c #83838C",
"a. c #8B8B8F",
"s. c #88828D",
"d. c #848493",
"f. c #868995",
"g. c #8C8C94",
"h. c #84869C",
"j. c #85899C",
"k. c #8B8D9C",
"l. c #8A8798",
"z. c #928F95",
"x. c #8E919E",
"c. c #92939C",
"v. c #99989A",
"b. c #8C8CA2",
"n. c #858AA2",
"m. c #918FA3",
"M. c #8D92A3",
"N. c #8E91A8",
"B. c #9394A3",
"V. c #979AA4",
"C. c #9C9CA4",
"Z. c #9495AC",
"A. c #9599AD",
"S. c #9C9CAB",
"D. c #9997AD",
"F. c #9B9EB3",
"G. c #989CB5",
"H. c #A29DA9",
"J. c #9FA0AA",
"K. c #9DA2B8",
"L. c #A2A3AC",
"P. c #A8A9AF",
"I. c #A3A0A3",
"U. c #A2A4B3",
"Y. c #ABABB4",
"T. c #A3A4BB",
"R. c #A5A9BD",
"E. c #A9ACBE",
"W. c #A7A7B7",
"Q. c #BDAEBA",
"!. c #AEB1BB",
"~. c #B3B3BB",
"^. c #BABBBE",
"/. c #B0B0B3",
"(. c #A9ADC4",
"). c #ADB2C7",
"_. c #B3B5C2",
"`. c #B9BAC2",
"'. c #B2B5CB",
"]. c #BCBECB",
"[. c #B3B8C8",
"{. c #B4BAD3",
"}. c #B9BED8",
"|. c #BEC2CF",
" X c #C4C4CC",
".X c #C8C7CA",
"XX c #C4C8D7",
"oX c #D4D3D9",
"OX c #D2C9D2",
"+X c #CED2E3",
"@X c #D2D5E6",
"#X c #D6D8E2",
"$X c #D5DAEC",
"%X c #DCE1ED",
"&X c #E2E4EA",
"*X c #E6E5E6",
"=X c #ECEFF4",
"-X c #FDFDFE",
";X c #F7F8FA",
/* pixels */
"                                  h v 5 a a                                                                                     ",
"                                p.d.i c 4.k.5.j                                                                                 ",
"                              : *X=Xm v 5.&X-Xv                                                                                 ",
"                              3 c.OXe.+.j Q.^.h                                                                                 ",
"                                c.E E _ ` %.R 5.                                                                                ",
"                                _.7.B.} 5.4.r.c.                                                                                ",
"                                _.k.U.E._.z.g.d.                                                                                ",
"                                S.C.B.r.x.} g.i.                                                                                ",
"                            S.U.x.{ i.O.#.M } a.X.X.7.        g @.                                                              ",
"              Q A ] F c N { _ G @.G M _ ' H @.N _ N j v X.N 2 & 0   f.                                                          ",
"        p.    + # & 7 } h X @ 8 i c M k G c g 0 $ $ 7 L 2 + # * 2 8 w @.!.                                                      ",
"      c.} { N 3 4 : , 0 H M 0 0 : G | v ( ..: i 2 c H , # a p - f H j v `.                                                      ",
"      } c ] G 2 h c w 8 8 i h 0 < L L Q m ..: 0 i z @ 8 c m : # o w c Q  X                                                      ",
"    C.N N H   O # & 2 G H ; H B v ..Q #.Y 8.8 : M w ] _ 2 . o O X 2 G N 5.H                                                     ",
"  .X*X.XP.f O   & - h v _ @.g a @._ N d.A O.H 0 $ j h # o . : 0   5 g ' l k                                                     ",
"  &X;X~.c.c ;     h v & 2 8 G 3.X.c L ] d.Z.).F.{ w i 0 X # z 4     C.!.z.C                                                     ",
"oX;X^.2 _ 5.H     2 $ V @.J F ] L z F L M.A.T.7.1.N X.j.i 2 ; G   c.@XY.oXa.                                                    ",
".X*Xi.M XX[.]     a 0 p.K J ..z j L a c j i m m F L G h v M v     p._.S.^.v.                                                    ",
"I..Xk +._.U.F         % : 2 3./ F z h i a 2 p G a _ , o c j         H @./.C.                                                    ",
"  -Xs.q k.3.            Y.f h j : 2 $ : : ; ; ; w v : i ].g.        H +.)                                                       ",
"  Y.P.q L               c.@.@ 2 c   . g 0 w < o g w   h p.        N w N !                                                       ",
"' d.c.) c.N j             } s.      t h 0 i c g       c.          ] h h _                                                       ",
"  U.} ~.-Xx.v Y.5.        d..X      V c j h m ) +.    J._         H a H _                                                       ",
"        ~.v.f.L.i.J.        }       N j 0 c N k H     v i   _.b w.z.+.H H                                                       ",
"              ].k.`.~.^. X5.h q , H 0 M i i 8 8 i w 2 N i.] L n g.p.` #.g.                                                      ",
"                    oX-X~.C.P.l.a : m } j w 8 c g 8 i n.p.p.b j X.d.#.H.s.                                                      ",
"                      ].T a.~.p.1 j 4.5., i i #.d.A h.p           X. .R           (.'.d.d                            .b.d.      ",
"                        i.v.5.q 8 , j g g G 0 Q O.L 2 w D.i p J z v /           b.}.R.S.m.{ ] b.K...6.(.n.3.M.XXb.j.T.E.B.d.    ",
"                      k.j.X.p.q 0 H X.X.f.5.B.+X@XU.0 2 d N <.e.[ M 5.P ] W.7.1.K.K.y.j.{.K.G.{.}.N.Z.(.Z.t.q.b.X.R n ] [ R     ",
"                    -XC.L h R.'.).{.{.}.R.E.XX'.A.A.F.b.A.F.R.T.D.<.Z.q.q.G.8.7.q.0.,.| | J A K S Z Z S I ^ &.&.~ ~ D A J 3 2 v ",
"                  &XY.; B g.$ 1.h.8.8.H X = : q N $ 2 G 6.q.Y L H z x v A I ^ *.>.:.-.-.:.:.;.;.;.u.u.-.=.:.-.&.~ I S A 2 > =   ",
"                %X7.0 e V 5.v F n j x H q j #.W.D.@.T...z ,.i c 5 a K K ^ ~ &.*.*.&.I I *.U U U ( ( ( ..| ] ] 8.<. .,.q.w.s.    ",
"                V./ k.|.O.p.W.(.W.B.V.@.; b w.q.v a F x u z q 0 j c L L L <.<. .3.q.3.q.Z.b.b.h.A.b.j.n.h.9.3.q.X.F z J l.c.    ",
"              XX/ v `.E.M   a z u 2 2 = @ . . O > @ X.F.k.d.8.9.S.R 3.q.8.h.t. .| q. .W ,.,.n n Y v d x v 6 2 d p : > 6 L 9.    ",
"                k.f.].] H   [ N v { R ]  .h a v ] 4.h.n.q.,.| P X.n d z p z h > 2 d 2 : 6 u :                                   ",
"                $X$XL.Q   C.Z.Z.j.d.8.q.q.6.0.2.2.| | L ] 5.3.W.g.                                                              ",
"              XX#X`.x.h V.~.f.                        5.H $.V.-X#X                                                              ",
"              ..H  X@.c Y.L.M.                        8.@.i.d. XXX                                                              ",
"              c G !.M ) 4.N                             X.N b.N ]                                                               ",
"              S.B.V.#.g.U.                                s.x.} O.                                                              ",
"            $X+XL.W.4.S.                                  f.7.r.x.k.                                                            ",
"            +X@X!.B.4.f.                                  k.3.j.Z.N.                                                            ",
"            ~.L.p.O.4.N                                 ] #.#.r.r.7.                                                            ",
"            |.k g } V.r.                                x.M i h } +.                                                            ",
"          5.B.N M X.Z.}                                 d.G X.{ k M                                                             ",
"            { d.f.s 0                                     H V ] c c                                                             ",
"            k..._ _ j                                   { g.r l z.x.                                                            ",
"            ].] / (.5.;                                 N d.c H x.)                                                             ",
"            M.h c _ ) 8                                 G G ; : O.o.                                                            ",
"            X., q G 4.v                                   c 1 8 H                                                               ",
"            x.G g ) _                                     G h g V                                                               ",
"            k.3.M @.H                                     i i 8 {                                                               ",
"            7.{ g ` k                                       0 , X.                                                              ",
"              H g }                                         8 q H                                                               ",
"              M 9 V                                         2 l ..                                                              ",
"              B y w                                         1 g 3.                                                              ",
"              G M a                                         j b 5.                                                              ",
"              _ e 0                                         k.g i.                                                              ",
"              ..e 5.                                        j 8 h g                                                             ",
"            v M g H                                         8 B V C v                                                           ",
"          ) H G ) 9                                         : ) M k k                                                           ",
"        c j N N M r                                           s B c H ) M                                                       ",
"      H c i b b                                                 M T H V                                                         ",
"      G V v e                                                                                                                   "
};
