/* XPM */
static char *_02326f8eab04c808cab7460e9c98200Usr73xXgUhZWF1LG[] = {
/* columns rows colors chars-per-pixel */
"64 64 163 2 ",
"   c None",
".  c #030605",
"X  c #050807",
"o  c #060B09",
"O  c #0C0D0D",
"+  c #0D100F",
"@  c #10100F",
"#  c #0E1211",
"$  c #121413",
"%  c #131917",
"&  c #151D1B",
"*  c #1A1C1C",
"=  c #16211E",
"-  c #1A211F",
";  c #1B2522",
":  c #1D2925",
">  c #1E2E29",
",  c #222524",
"<  c #242927",
"1  c #232D29",
"2  c #292B2B",
"3  c #24322D",
"4  c #28322F",
"5  c #263531",
"6  c #2A3532",
"7  c #273933",
"8  c #2B3A35",
"9  c #2E3D39",
"0  c #333635",
"q  c #333937",
"w  c #363838",
"e  c #333C3A",
"r  c #303E3A",
"t  c #303E3B",
"y  c #323F3B",
"u  c #333C39",
"i  c #383A3A",
"p  c #383B3A",
"a  c #393C3B",
"s  c #3B3E3D",
"d  c #2E413A",
"f  c #30423C",
"g  c #31423C",
"h  c #33433E",
"j  c #3D403F",
"k  c #38433F",
"l  c #354340",
"z  c #354441",
"x  c #374743",
"c  c #364642",
"v  c #3B4542",
"b  c #354C44",
"n  c #384844",
"m  c #394946",
"M  c #3A4B47",
"N  c #3A4A45",
"B  c #3B4C48",
"V  c #3B4D49",
"C  c #3C4D49",
"Z  c #355047",
"A  c #375048",
"S  c #3C544C",
"D  c #3D584F",
"F  c #3E5A50",
"G  c #444645",
"H  c #454747",
"J  c #434444",
"K  c #414C4A",
"L  c #434D4A",
"P  c #41504C",
"I  c #42504C",
"U  c #40524F",
"Y  c #43534E",
"T  c #4B504F",
"R  c #455350",
"E  c #455451",
"W  c #465552",
"Q  c #465652",
"!  c #445651",
"~  c #4F5251",
"^  c #4C5754",
"/  c #4C5652",
"(  c #435B53",
")  c #495A56",
"_  c #4A5A56",
"`  c #495A55",
"'  c #4A5B58",
"]  c #4C5C59",
"[  c #4E5D5A",
"{  c #4D5E5A",
"}  c #4E5F5B",
"|  c #4D5E59",
" . c #505453",
".. c #525856",
"X. c #575F5D",
"o. c #525D59",
"O. c #595F5D",
"+. c #456057",
"@. c #466158",
"#. c #4C635B",
"$. c #51615D",
"%. c #55605D",
"&. c #53635E",
"*. c #59625F",
"=. c #556561",
"-. c #596360",
";. c #5B6361",
":. c #5C6361",
">. c #5B6561",
",. c #546B63",
"<. c #5B6B66",
"1. c #5C6C68",
"2. c #5E6F6B",
"3. c #5D6E69",
"4. c #557067",
"5. c #5D716B",
"6. c #606967",
"7. c #646D6A",
"8. c #696F6D",
"9. c #61716D",
"0. c #66706E",
"q. c #62736E",
"w. c #6A716F",
"e. c #657570",
"r. c #697472",
"t. c #6B7673",
"y. c #657973",
"u. c #6A7976",
"i. c #6E7876",
"p. c #6D7A77",
"a. c #6F7A77",
"s. c #6B7A76",
"d. c #6C7C78",
"f. c #6E7E7A",
"g. c #6D7C78",
"h. c #727675",
"j. c #717A77",
"k. c #737D7A",
"l. c #6E817B",
"z. c #71817E",
"x. c #72817E",
"c. c #74817D",
"v. c #74817E",
"b. c #73827D",
"n. c #79827F",
"m. c #748781",
"M. c #7B8582",
"N. c #7D8A86",
"B. c #7C8E88",
"V. c #808A87",
"C. c #848E8A",
"Z. c #87918D",
"A. c #89928F",
"S. c #8C9592",
"D. c #8F9895",
"F. c #929594",
"G. c #909996",
"H. c #949C99",
"J. c #9A9E9D",
"K. c #97A09D",
"L. c #99A19E",
"P. c #BBBDBC",
"I. c #BEC1C0",
/* pixels */
"                                                                                                                                ",
"                                                                                                                                ",
"                                                                                                                                ",
"                                                                                                                                ",
"                                                                                                                                ",
"                                                                                                                                ",
"                                                                                                                                ",
"                                                                                                                                ",
"                                                                                                                                ",
"                                                                                                                                ",
"                                                      , , , - 0 p * < , <                                                       ",
"                                                , , , ; * $ $ $ $ $ % * * , < <                                                 ",
"                                            - , * $ $ & < e K ^ %.-.X.T w , % * < <                                             ",
"                                        * , * $ $ 1 n ) } ' E I I R } 3.u.i.-.w * * 2 <                                         ",
"                                      * - $ $ 1 B I l 3 : ; - ; ; - = - : e &.g.q.0 $ , <                                       ",
"                                    * * @ * z B 6 ; ; > 3 3 3 3 3 3 3 3 1 ; - 1 ) c.O.* - , #                                   ",
"                                  H % O 1 B 9 ; : 3 3 : ; & & & & & & ; : 3 3 : = 6 q.i.2 $ H 2                                 ",
"                                * * O 3 n 3 ; 3 3 ; & & & & & & & & & & & & ; 3 5 ; ; } v.6 * ,                                 ",
"                              * * O 1 n 1 > 8 1 & & & & & & & & & & & & & & & & 1 8 1 - E v.2 - <                               ",
"                            & * O : n 1 1 8 : & = - - - - - - - - - - - - - - = & : 8 3 - } i.* , ,                             ",
"                            * $ & z 3 > 8 : - ; ; - - - - - - ; ; - - - - - - ; ; - : 8 3 ; 3.:.$ <                             ",
"                          % $ O 9 e : 9 1 - ; ; ; ; ; ; ; ; ; ; ; ; ; ; ; ; ; ; ; ; ; 1 9 : 3 c.p * ,                           ",
"                          * O ; n 1 8 6 ; : : : ; ; ; : ; & * ; ; - & ; : ; ; : : : : ; 6 8 ; E r.* <                           ",
"                        $ $ O e 9 3 f 3 1 1 1 : : : : % # - a ~  .j , # % : : : 1 1 1 1 3 f 3 1 g.s * ,                         ",
"                        % O & n 3 8 k 9 6 4 3 1 1 1 + o - v w.S.F.h.H , O + : 3 3 3 6 9 e v d ; ] 6.$ <                         ",
"                      $ % O 3 x 3 n I C v g e 9 6 # o % 1 ..S.P.P.H.:.q ; + # 6 9 e k C K ^ B > 9 g., , ,                       ",
"                      $ $ O g f 5 } >.o.^ I C C ; . # & 3 o.S.P.I.J.8.L q < # - K K / o.%.7.%.7 : e.w * ,                       ",
"                      $ $ $ C 9 9 r.j.w.7.>.%.L o + % & 1 K i.G.H.M.8.-.o.v , O K >.<.q.t.k.j.h ; =.v % ,                       ",
"                      $ O & ! 6 N V.V.M.k.i.i.a . % & = : 9 I >.<.%.%.8.8.^ 6 O u k.j.n.N.C.C.S : E I $ <                       ",
"                      O O ; ) 5 ! D.S.Z.C.N.N.2 o & - ; ; 1 6 e g g K o.*.L 4 O , V.V.C.S.S.H.} : C E $ -                       ",
"                      0 O : } 7 } H.G.D.S.Z.C.; O ; : : ; : > 3 3 3 9 g v 6 ; + * C.S.D.G.G.K.=.> n E $ 0                       ",
"                      0 O : &.8 #.K.G.G.D.S.Z.; O ; : : : : : > > > > 1 1 ; & O & Z.D.G.H.H.K.,.> v L $ 0                       ",
"                      + O ; =.d ` H.D.S.Z.C.C.1 o = - ; ; ; : : : : : ; = & % o , Z.Z.S.D.G.K.&.> n v $ *                       ",
"                      $ O & =.N S S.Z.C.N.v.M.g . % & = = ; ; : : ; ; = = & % . u N.M.C.Z.S.D.` > C 9 $ ,                       ",
"                      # # # } } b n.M.k.i.e.q.^ X # % & = = ; ; ; ; = = & % # . / u.u.c.M.C.N.A 1 I 1 % ,                       ",
"                      # $ O n q.h 3.i.9.<.=.#.#.; . % % & & = = = = = & % % . - &.=.<.q.e.c.q.h 3 S * * ;                       ",
"                      + $ O 1 u.Y ( <.&.#.` ( Y N + o % % % & & & & & % % o O n Q ( } &.,.q.#.8 9 z $ , ;                       ",
"                        $ O % =.<.b #.( ( S S A S f O . # % % % % % % # X O d S S S ! ( ` #.S 3 n 1 $ ,                         ",
"                        + $ O f i.A ( Y S S A A B A b & X . o O O o . . & b S B A S S S ! ` h 3 n % * -                         ",
"                        + $ O & <.<.Z Q S S A A A A S S z 1 & $ # & 1 z ( S A A A S S S ( D 3 z 5 $ ; *                         ",
"                          + $ O 9 g.Q S ( S S S S S S S ` ,.<.5.5.5.,.#.( S S S S S S Y ( d 6 z $ * *                           ",
"                          O $ O % E i.A ( ( S S S S S ( ` &.5.y.u.q.,.#.Q S S S S S S ` b 3 n ; $ - *                           ",
"                            O $ O ; =.r.A ( ( S D D F ( #.,.q.u.g.y.3.#.` ( F D D ( ` A 3 z 3 + * *                             ",
"                              # $ O : <.r.A F ( ( ( F ` #.,.y.l.c.u.5.,.@.( ( F ( @.b 3 z 8 $ & *                               ",
"                              O + O O 1 =.i.( S ( ( ( @.#.5.u.m.m.l.q.,.#.` ( @.( h 5 z 8 # O * *                               ",
"                                O H * o ; Q g.<.( D ( @.,.5.l.B.B.m.y.,.#.@.( A 8 9 n 3 O $ J ;                                 ",
"                                  , # $ O % e 3.u.<.` D F ( #.,.4.,.#.( S b d e n f - O $ * 2                                   ",
"                                    O # $ O O - z <.u.r.3.&.` S A b b n n B C z 1 # O % * &                                     ",
"                                        O $ # O O & 6 C &.3.q.7.<.=.o.) C 9 ; # O $ * %                                         ",
"                                          O + $ $ O O O $ & ; 1 1 1 ; & # O O $ & % $                                           ",
"                                              + + $ $ $ O O O o o O O + $ $ % $ $                                               ",
"                                                    + # # $ + 2 w O $ $ $ $                                                     ",
"                                                                                                                                ",
"                                                                                                                                ",
"                                                                                                                                ",
"                                                                                                                                ",
"                                                                                                                                ",
"                                                                                                                                ",
"                                                                                                                                ",
"                                                                                                                                ",
"                                                                                                                                ",
"                                                                                                                                ",
"                                                                                                                                ",
"                                                                                                                                "
};
